; generated by Slic3r 1.2.9 on 2016-11-27 at 16:53:42

; external perimeters extrusion width = 0.40mm
; perimeters extrusion width = 0.67mm
; infill extrusion width = 0.67mm
; solid infill extrusion width = 0.67mm
; top infill extrusion width = 0.67mm
; support material extrusion width = 0.40mm

M107
M190 S115 ; set bed temperature
M104 S240 ; set temperature
M42 P19 S0
G28 X0 Y0 Z80.9
G92 E0
G1 Z30 F200;(Move away from X/Y endstops)
G1 E10 F20 ;(Move away from X/Y endstops)
G1 E9 F200
G1 Z5 F100

M109 S240 ; wait for temperature to be reached
G21 ; set units to millimeters
G90 ; use absolute coordinates
M82 ; use absolute distances for extrusion
G92 E0
G1 E-3.00000 F2400.00000
G92 E0
G1 Z0.600 F6000.000
G0 X100 Y79 F6000
M0 P1 ;1ms sleep
M42 P19 S255
M0 P100 ;100ms sleep
M42 P19 S0
M0 S5 ;5s sleep

G1 X45.827 Y46.720 F6000.000
G1 Z0.200 F6000.000
G1 E3.00000 F2400.00000
G1 X47.583 Y45.220 E3.01928 F1500.000
G1 X49.743 Y44.405 E3.03856
G1 X51.000 Y44.286 E3.04910
G1 X149.000 Y44.286 E3.86739
G1 X151.275 Y44.683 E3.88666
G1 X153.280 Y45.827 E3.90594 F1500.000
G1 X154.780 Y47.583 E3.92522
G1 X155.595 Y49.743 E3.94450
G1 X155.714 Y51.000 E3.95505
G1 X155.714 Y148.900 E4.77249
G1 X155.317 Y151.175 E4.79177
G1 X154.173 Y153.180 E4.81105
G1 X152.417 Y154.680 E4.83033
G1 X150.257 Y155.495 E4.84961
G1 X149.000 Y155.614 E4.86016
G1 X76.778 Y155.610 E5.46320
G1 X51.221 Y154.763 E5.67671
G1 X48.961 Y154.291 E5.69599
G1 X46.994 Y153.081 E5.71527
G1 X45.554 Y151.277 E5.73455
G1 X44.730 Y148.171 E5.76137
G1 X44.287 Y123.018 E5.97143
G1 X44.286 Y51.000 E6.57277
G1 X44.683 Y48.725 E6.59205
G1 X45.797 Y46.772 E6.61083
G1 X46.148 Y46.909 F6000.000
G1 X46.181 Y46.854 E6.61136 F1500.000
G1 X47.923 Y45.437 E6.63012
G1 X51.000 Y44.643 E6.65665
G1 X149.000 Y44.643 E7.47493
G1 X151.211 Y45.040 E7.49369
G1 X153.146 Y46.181 E7.51244 F1500.000
G1 X154.563 Y47.923 E7.53120
G1 X155.357 Y51.000 E7.55773
G1 X155.357 Y148.900 E8.37518
G1 X154.960 Y151.111 E8.39393
G1 X153.819 Y153.046 E8.41269
G1 X152.077 Y154.463 E8.43144
G1 X149.000 Y155.257 E8.45797
G1 X76.789 Y155.254 E9.06092
G1 X51.233 Y154.407 E9.27443
G1 X49.036 Y153.937 E9.29318
G1 X47.140 Y152.732 E9.31194
G1 X45.782 Y150.943 E9.33070
G1 X45.087 Y148.165 E9.35461
G1 X44.644 Y123.012 E9.56466
G1 X44.643 Y51.000 E10.16595
G1 X45.040 Y48.789 E10.18471
G1 X46.118 Y46.961 E10.20243
G1 F4800
G1 X46.181 Y46.854 E10.14353
G1 F4800
G1 X47.923 Y45.437 E9.07656
G1 F4800
G1 X51.000 Y44.643 E7.56734
G1 F4800
G1 X51.452 Y44.643 E7.35243
G1 E7.20243 F2400.00000
G92 E0
G1 Z0.800 F6000.000
G1 X76.334 Y101.393 F6000.000
G1 Z0.200 F6000.000
G1 E3.00000 F2400.00000
G1 X97.666 Y101.393 E3.17811 F1500.000
G1 X98.607 Y102.334 E3.18923
G1 X98.607 Y123.566 E3.36650 F1500.000
G1 X97.666 Y124.507 E3.37762
G1 X76.334 Y124.507 E3.55573
G1 X75.393 Y123.566 E3.56684
G1 X75.393 Y102.334 E3.74412
G1 X76.292 Y101.436 E3.75473
G1 X76.482 Y101.750 F6000.000
G1 X97.518 Y101.750 E3.93038 F1500.000
G1 X98.250 Y102.482 E3.93902 F1500.000
G1 X98.250 Y123.418 E4.11383
G1 X97.518 Y124.150 E4.12247
G1 X76.482 Y124.150 E4.29811
G1 X75.750 Y123.418 E4.30676
G1 X75.750 Y102.482 E4.48157
G1 X76.440 Y101.793 E4.48971
G1 X76.630 Y102.107 F6000.000
G1 X97.370 Y102.107 E4.66288 F1500.000
G1 X97.893 Y102.630 E4.66906
G1 X97.893 Y123.270 E4.84139 F1500.000
G1 X97.370 Y123.793 E4.84757
G1 X76.630 Y123.793 E5.02074
G1 X76.107 Y123.270 E5.02691
G1 X76.107 Y102.630 E5.19925
G1 X76.588 Y102.150 E5.20492
G1 X76.778 Y102.464 F6000.000
G1 X97.222 Y102.464 E5.37563 F1500.000
G1 X97.536 Y102.778 E5.37933 F1500.000
G1 X97.536 Y123.122 E5.54920
G1 X97.222 Y123.436 E5.55290
G1 X76.778 Y123.436 E5.72360
G1 X76.464 Y123.122 E5.72731
G1 X76.464 Y102.778 E5.89718
G1 X76.736 Y102.507 E5.90038
G1 X76.926 Y102.821 F6000.000
G1 X97.074 Y102.821 E6.06861 F1500.000
G1 X97.179 Y102.926 E6.06985
G1 X97.179 Y122.974 E6.23724
G1 X97.074 Y123.079 E6.23848
G1 X76.926 Y123.079 E6.40671
G1 X76.821 Y122.974 E6.40794
G1 X76.821 Y102.926 E6.57534
G1 X76.884 Y102.864 E6.57607
G1 F4800
G1 X82.884 Y102.851 E3.72607
G1 E3.57607 F2400.00000
G92 E0
G1 Z0.800 F6000.000
G1 X76.926 Y98.507 F6000.000
G1 Z0.200 F6000.000
G1 E3.00000 F2400.00000
G1 X76.334 Y98.507 E3.00494 F1500.000
G1 X75.393 Y97.566 E3.01605
G1 X75.393 Y76.334 E3.19333
G1 X76.334 Y75.393 E3.20445
G1 X97.666 Y75.393 E3.38256
G1 X98.607 Y76.334 E3.39367
G1 X98.607 Y97.566 E3.57095 F1500.000
G1 X97.666 Y98.507 E3.58206
G1 X76.986 Y98.507 E3.75473
G1 X76.926 Y98.150 F6000.000
G1 X76.482 Y98.150 E3.75844 F1500.000
G1 X75.750 Y97.418 E3.76708
G1 X75.750 Y76.482 E3.94189
G1 X76.482 Y75.750 E3.95054
G1 X97.518 Y75.750 E4.12618
G1 X98.250 Y76.482 E4.13482 F1500.000
G1 X98.250 Y97.418 E4.30963
G1 X97.518 Y98.150 E4.31827
G1 X76.986 Y98.150 E4.48971
G1 X76.926 Y97.793 F6000.000
G1 X76.630 Y97.793 E4.49218 F1500.000
G1 X76.107 Y97.270 E4.49835
G1 X76.107 Y76.630 E4.67069
G1 X76.630 Y76.107 E4.67687
G1 X97.370 Y76.107 E4.85004
G1 X97.893 Y76.630 E4.85621
G1 X97.893 Y97.270 E5.02855 F1500.000
G1 X97.370 Y97.793 E5.03472
G1 X76.986 Y97.793 E5.20492
G1 X76.926 Y97.436 F6000.000
G1 X76.778 Y97.436 E5.20616 F1500.000
G1 X76.464 Y97.122 E5.20986
G1 X76.464 Y76.778 E5.37973
G1 X76.778 Y76.464 E5.38344
G1 X97.222 Y76.464 E5.55414
G1 X97.536 Y76.778 E5.55784 F1500.000
G1 X97.536 Y97.122 E5.72771
G1 X97.222 Y97.436 E5.73141
G1 X76.986 Y97.436 E5.90038
G1 X76.821 Y96.974 F6000.000
G1 X76.821 Y76.926 E6.06778 F1500.000
G1 X76.926 Y76.821 E6.06901
G1 X97.074 Y76.821 E6.23724
G1 X97.179 Y76.926 E6.23848
G1 X97.179 Y96.974 E6.40587
G1 X97.074 Y97.079 E6.40711
G1 X76.926 Y97.079 E6.57534
G1 X76.864 Y97.016 E6.57607
G1 F4800
G1 X76.851 Y91.016 E3.72607
G1 E3.57607 F2400.00000
G92 E0
G1 Z0.800 F6000.000
G1 X76.821 Y72.507 F6000.000
G1 Z0.200 F6000.000
G1 E3.00000 F2400.00000
G1 X76.334 Y72.507 E3.00407 F1500.000
G1 X75.393 Y71.566 E3.01518
G1 X75.393 Y50.334 E3.19246
G1 X76.334 Y49.393 E3.20357
G1 X97.666 Y49.393 E3.38168
G1 X98.607 Y50.334 E3.39280
G1 X98.607 Y71.566 E3.57008 F1500.000
G1 X97.666 Y72.507 E3.58119
G1 X76.881 Y72.507 E3.75473
G1 X76.821 Y72.150 F6000.000
G1 X76.482 Y72.150 E3.75757 F1500.000
G1 X75.750 Y71.418 E3.76621
G1 X75.750 Y50.482 E3.94102
G1 X76.482 Y49.750 E3.94966
G1 X97.518 Y49.750 E4.12530
G1 X98.250 Y50.482 E4.13395 F1500.000
G1 X98.250 Y71.418 E4.30876
G1 X97.518 Y72.150 E4.31740
G1 X76.881 Y72.150 E4.48971
G1 X76.821 Y71.793 F6000.000
G1 X76.630 Y71.793 E4.49131 F1500.000
G1 X76.107 Y71.270 E4.49748
G1 X76.107 Y50.630 E4.66982
G1 X76.630 Y50.107 E4.67599
G1 X97.370 Y50.107 E4.84916
G1 X97.893 Y50.630 E4.85534
G1 X97.893 Y71.270 E5.02768 F1500.000
G1 X97.370 Y71.793 E5.03385
G1 X76.881 Y71.793 E5.20492
G1 X76.821 Y71.436 F6000.000
G1 X76.778 Y71.436 E5.20529 F1500.000
G1 X76.464 Y71.122 E5.20899
G1 X76.464 Y50.778 E5.37886
G1 X76.778 Y50.464 E5.38256
G1 X97.222 Y50.464 E5.55326
G1 X97.536 Y50.778 E5.55697 F1500.000
G1 X97.536 Y71.122 E5.72684
G1 X97.222 Y71.436 E5.73054
G1 X76.881 Y71.436 E5.90038
G1 X76.821 Y70.974 F6000.000
G1 X76.821 Y50.926 E6.06778 F1500.000
G1 X76.926 Y50.821 E6.06901
G1 X97.074 Y50.821 E6.23724
G1 X97.179 Y50.926 E6.23848
G1 X97.179 Y70.974 E6.40587
G1 X97.074 Y71.079 E6.40711
G1 X76.926 Y71.079 E6.57534
G1 X76.864 Y71.016 E6.57607
G1 F4800
G1 X76.851 Y65.016 E3.72607
G1 E3.57607 F2400.00000
G92 E0
G1 Z0.800 F6000.000
G1 X72.607 Y70.974 F6000.000
G1 Z0.200 F6000.000
G1 E3.00000 F2400.00000
G1 X72.607 Y71.566 E3.00494 F1500.000
G1 X71.666 Y72.507 E3.01605
G1 X50.334 Y72.507 E3.19417
G1 X49.393 Y71.566 E3.20528
G1 X49.393 Y50.334 E3.38256
G1 X50.334 Y49.393 E3.39367
G1 X71.666 Y49.393 E3.57178
G1 X72.607 Y50.334 E3.58290
G1 X72.607 Y70.914 E3.75473 F1500.000
G1 X72.250 Y70.974 F6000.000
G1 X72.250 Y71.418 E3.75844 F1500.000
G1 X71.518 Y72.150 E3.76708
G1 X50.482 Y72.150 E3.94273
G1 X49.750 Y71.418 E3.95137
G1 X49.750 Y50.482 E4.12618
G1 X50.482 Y49.750 E4.13482
G1 X71.518 Y49.750 E4.31046
G1 X72.250 Y50.482 E4.31911 F1500.000
G1 X72.250 Y70.914 E4.48971
G1 X71.893 Y70.974 F6000.000
G1 X71.893 Y71.270 E4.49218 F1500.000
G1 X71.370 Y71.793 E4.49835
G1 X50.630 Y71.793 E4.67153
G1 X50.107 Y71.270 E4.67770
G1 X50.107 Y50.630 E4.85004
G1 X50.630 Y50.107 E4.85621
G1 X71.370 Y50.107 E5.02938
G1 X71.893 Y50.630 E5.03556
G1 X71.893 Y70.914 E5.20492 F1500.000
G1 X71.536 Y70.974 F6000.000
G1 X71.536 Y71.122 E5.20616 F1500.000
G1 X71.222 Y71.436 E5.20986
G1 X50.778 Y71.436 E5.38057
G1 X50.464 Y71.122 E5.38427
G1 X50.464 Y50.778 E5.55414
G1 X50.778 Y50.464 E5.55784
G1 X71.222 Y50.464 E5.72854
G1 X71.536 Y50.778 E5.73225 F1500.000
G1 X71.536 Y70.914 E5.90038
G1 X71.074 Y71.079 F6000.000
G1 X50.926 Y71.079 E6.06861 F1500.000
G1 X50.821 Y70.974 E6.06985
G1 X50.821 Y50.926 E6.23724
G1 X50.926 Y50.821 E6.23848
G1 X71.074 Y50.821 E6.40671
G1 X71.179 Y50.926 E6.40794
G1 X71.179 Y70.974 E6.57534
G1 X71.116 Y71.036 E6.57607
G1 F4800
G1 X65.116 Y71.049 E3.72607
G1 E3.57607 F2400.00000
G92 E0
G1 Z0.800 F6000.000
G1 X71.074 Y75.393 F6000.000
G1 Z0.200 F6000.000
G1 E3.00000 F2400.00000
G1 X71.666 Y75.393 E3.00494 F1500.000
G1 X72.607 Y76.334 E3.01605
G1 X72.607 Y97.566 E3.19333 F1500.000
G1 X71.666 Y98.507 E3.20445
G1 X50.334 Y98.507 E3.38256
G1 X49.393 Y97.566 E3.39367
G1 X49.393 Y76.334 E3.57095
G1 X50.334 Y75.393 E3.58206
G1 X71.014 Y75.393 E3.75473
G1 X71.074 Y75.750 F6000.000
G1 X71.518 Y75.750 E3.75844 F1500.000
G1 X72.250 Y76.482 E3.76708 F1500.000
G1 X72.250 Y97.418 E3.94189
G1 X71.518 Y98.150 E3.95054
G1 X50.482 Y98.150 E4.12618
G1 X49.750 Y97.418 E4.13482
G1 X49.750 Y76.482 E4.30963
G1 X50.482 Y75.750 E4.31827
G1 X71.014 Y75.750 E4.48971
G1 X71.074 Y76.107 F6000.000
G1 X71.370 Y76.107 E4.49218 F1500.000
G1 X71.893 Y76.630 E4.49835
G1 X71.893 Y97.270 E4.67069 F1500.000
G1 X71.370 Y97.793 E4.67687
G1 X50.630 Y97.793 E4.85004
G1 X50.107 Y97.270 E4.85621
G1 X50.107 Y76.630 E5.02855
G1 X50.630 Y76.107 E5.03472
G1 X71.014 Y76.107 E5.20492
G1 X71.074 Y76.464 F6000.000
G1 X71.222 Y76.464 E5.20616 F1500.000
G1 X71.536 Y76.778 E5.20986 F1500.000
G1 X71.536 Y97.122 E5.37973
G1 X71.222 Y97.436 E5.38344
G1 X50.778 Y97.436 E5.55414
G1 X50.464 Y97.122 E5.55784
G1 X50.464 Y76.778 E5.72771
G1 X50.778 Y76.464 E5.73141
G1 X71.014 Y76.464 E5.90038
G1 X71.179 Y76.926 F6000.000
G1 X71.179 Y96.974 E6.06778 F1500.000
G1 X71.074 Y97.079 E6.06901
G1 X50.926 Y97.079 E6.23724
G1 X50.821 Y96.974 E6.23848
G1 X50.821 Y76.926 E6.40587
G1 X50.926 Y76.821 E6.40711
G1 X71.074 Y76.821 E6.57534
G1 X71.136 Y76.884 E6.57607
G1 F4800
G1 X71.149 Y82.884 E3.72607
G1 E3.57607 F2400.00000
G92 E0
G1 Z0.800 F6000.000
G1 X71.179 Y101.393 F6000.000
G1 Z0.200 F6000.000
G1 E3.00000 F2400.00000
G1 X71.666 Y101.393 E3.00407 F1500.000
G1 X72.607 Y102.334 E3.01518
G1 X72.607 Y123.566 E3.19246 F1500.000
G1 X71.666 Y124.507 E3.20357
G1 X50.334 Y124.507 E3.38168
G1 X49.393 Y123.566 E3.39280
G1 X49.393 Y102.334 E3.57008
G1 X50.334 Y101.393 E3.58119
G1 X71.119 Y101.393 E3.75473
G1 X71.179 Y101.750 F6000.000
G1 X71.518 Y101.750 E3.75757 F1500.000
G1 X72.250 Y102.482 E3.76621 F1500.000
G1 X72.250 Y123.418 E3.94102
G1 X71.518 Y124.150 E3.94966
G1 X50.482 Y124.150 E4.12530
G1 X49.750 Y123.418 E4.13395
G1 X49.750 Y102.482 E4.30876
G1 X50.482 Y101.750 E4.31740
G1 X71.119 Y101.750 E4.48971
G1 X71.179 Y102.107 F6000.000
G1 X71.370 Y102.107 E4.49131 F1500.000
G1 X71.893 Y102.630 E4.49748
G1 X71.893 Y123.270 E4.66982 F1500.000
G1 X71.370 Y123.793 E4.67599
G1 X50.630 Y123.793 E4.84916
G1 X50.107 Y123.270 E4.85534
G1 X50.107 Y102.630 E5.02768
G1 X50.630 Y102.107 E5.03385
G1 X71.119 Y102.107 E5.20492
G1 X71.179 Y102.464 F6000.000
G1 X71.222 Y102.464 E5.20529 F1500.000
G1 X71.536 Y102.778 E5.20899 F1500.000
G1 X71.536 Y123.122 E5.37886
G1 X71.222 Y123.436 E5.38256
G1 X50.778 Y123.436 E5.55326
G1 X50.464 Y123.122 E5.55697
G1 X50.464 Y102.778 E5.72684
G1 X50.778 Y102.464 E5.73054
G1 X71.119 Y102.464 E5.90038
G1 X71.179 Y102.926 F6000.000
G1 X71.179 Y122.974 E6.06778 F1500.000
G1 X71.074 Y123.079 E6.06901
G1 X50.926 Y123.079 E6.23724
G1 X50.821 Y122.974 E6.23848
G1 X50.821 Y102.926 E6.40587
G1 X50.926 Y102.821 E6.40711
G1 X71.074 Y102.821 E6.57534
G1 X71.136 Y102.884 E6.57607
G1 F4800
G1 X71.149 Y108.884 E3.72607
G1 E3.57607 F2400.00000
G92 E0
G1 Z0.800 F6000.000
G1 X71.179 Y126.546 F6000.000
G1 Z0.200 F6000.000
G1 E3.00000 F2400.00000
G1 X72.109 Y126.546 E3.00777 F1500.000
G1 X73.050 Y127.487 E3.01888
G1 X73.050 Y148.719 E3.19616 F1500.000
G1 X72.109 Y149.660 E3.20728
G1 X50.778 Y149.660 E3.38539
G1 X49.837 Y148.719 E3.39650
G1 X49.837 Y127.487 E3.57378
G1 X50.778 Y126.546 E3.58489
G1 X71.119 Y126.546 E3.75473
G1 X71.179 Y126.903 F6000.000
G1 X71.961 Y126.903 E3.76127 F1500.000
G1 X72.693 Y127.635 E3.76991 F1500.000
G1 X72.693 Y148.571 E3.94472
G1 X71.961 Y149.303 E3.95337
G1 X50.926 Y149.303 E4.12901
G1 X50.194 Y148.571 E4.13765
G1 X50.194 Y127.635 E4.31246
G1 X50.926 Y126.903 E4.32110
G1 X71.119 Y126.903 E4.48971
G1 X71.179 Y127.260 F6000.000
G1 X71.813 Y127.260 E4.49501 F1500.000
G1 X72.336 Y127.783 E4.50118
G1 X72.336 Y148.423 E4.67352 F1500.000
G1 X71.813 Y148.946 E4.67970
G1 X51.074 Y148.946 E4.85287
G1 X50.551 Y148.423 E4.85904
G1 X50.551 Y127.783 E5.03138
G1 X51.074 Y127.260 E5.03755
G1 X71.119 Y127.260 E5.20492
G1 X71.179 Y127.617 F6000.000
G1 X71.665 Y127.617 E5.20899 F1500.000
G1 X71.979 Y127.931 E5.21269 F1500.000
G1 X71.979 Y148.275 E5.38256
G1 X71.665 Y148.589 E5.38627
G1 X51.222 Y148.589 E5.55697
G1 X50.908 Y148.275 E5.56067
G1 X50.908 Y127.931 E5.73054
G1 X51.222 Y127.617 E5.73424
G1 X71.119 Y127.617 E5.90038
G1 X71.622 Y128.079 F6000.000
G1 X71.622 Y148.127 E6.06778 F1500.000
G1 X71.517 Y148.231 E6.06901
G1 X51.370 Y148.231 E6.23724
G1 X51.265 Y148.127 E6.23848
G1 X51.265 Y128.079 E6.40587
G1 X51.370 Y127.974 E6.40711
G1 X71.517 Y127.974 E6.57534
G1 X71.580 Y128.037 E6.57607
G1 F4800
G1 X71.592 Y134.037 E3.72607
G1 E3.57607 F2400.00000
G92 E0
G1 Z0.800 F6000.000
G1 X75.393 Y128.334 F6000.000
G1 Z0.200 F6000.000
G1 E3.00000 F2400.00000
G1 X76.334 Y127.393 E3.01111 F1500.000
G1 X97.666 Y127.393 E3.18923
G1 X98.607 Y128.334 E3.20034
G1 X98.607 Y149.566 E3.37762 F1500.000
G1 X97.666 Y150.507 E3.38873
G1 X76.334 Y150.507 E3.56684
G1 X75.393 Y149.566 E3.57796
G1 X75.393 Y128.394 E3.75473
G1 X75.750 Y128.482 F6000.000
G1 X76.482 Y127.750 E3.76338 F1500.000
G1 X97.518 Y127.750 E3.93902
G1 X98.250 Y128.482 E3.94767 F1500.000
G1 X98.250 Y149.418 E4.12247
G1 X97.518 Y150.150 E4.13112
G1 X76.482 Y150.150 E4.30676
G1 X75.750 Y149.418 E4.31540
G1 X75.750 Y128.542 E4.48971
G1 X76.107 Y128.630 F6000.000
G1 X76.630 Y128.107 E4.49588 F1500.000
G1 X97.370 Y128.107 E4.66906
G1 X97.893 Y128.630 E4.67523
G1 X97.893 Y149.270 E4.84757 F1500.000
G1 X97.370 Y149.793 E4.85374
G1 X76.630 Y149.793 E5.02691
G1 X76.107 Y149.270 E5.03309
G1 X76.107 Y128.690 E5.20492
G1 X76.464 Y128.778 F6000.000
G1 X76.778 Y128.464 E5.20863 F1500.000
G1 X97.222 Y128.464 E5.37933
G1 X97.536 Y128.778 E5.38304 F1500.000
G1 X97.536 Y149.122 E5.55290
G1 X97.222 Y149.436 E5.55661
G1 X76.778 Y149.436 E5.72731
G1 X76.464 Y149.122 E5.73101
G1 X76.464 Y128.838 E5.90038
G1 X76.926 Y128.821 F6000.000
G1 X97.074 Y128.821 E6.06861 F1500.000
G1 X97.179 Y128.926 E6.06985
G1 X97.179 Y148.974 E6.23724
G1 X97.074 Y149.079 E6.23848
G1 X76.926 Y149.079 E6.40671
G1 X76.821 Y148.974 E6.40794
G1 X76.821 Y128.926 E6.57534
G1 X76.884 Y128.864 E6.57607
G1 F4800
G1 X82.884 Y128.851 E3.72607
G1 E3.57607 F2400.00000
G92 E0
G1 Z0.800 F6000.000
G1 X127.393 Y128.821 F6000.000
G1 Z0.200 F6000.000
G1 E3.00000 F2400.00000
G1 X127.393 Y128.334 E3.00407 F1500.000
G1 X128.334 Y127.393 E3.01518
G1 X149.666 Y127.393 E3.19329
G1 X150.607 Y128.334 E3.20441
G1 X150.607 Y149.566 E3.38168 F1500.000
G1 X149.666 Y150.507 E3.39280
G1 X128.334 Y150.507 E3.57091
G1 X127.393 Y149.566 E3.58203
G1 X127.393 Y128.881 E3.75473
G1 X127.750 Y128.821 F6000.000
G1 X127.750 Y128.482 E3.75757 F1500.000
G1 X128.482 Y127.750 E3.76621
G1 X149.518 Y127.750 E3.94185
G1 X150.250 Y128.482 E3.95050 F1500.000
G1 X150.250 Y149.418 E4.12530
G1 X149.518 Y150.150 E4.13395
G1 X128.482 Y150.150 E4.30959
G1 X127.750 Y149.418 E4.31824
G1 X127.750 Y128.881 E4.48971
