; generated by Slic3r 1.2.9 on 2016-11-26 at 09:58:50

; external perimeters extrusion width = 0.40mm
; perimeters extrusion width = 0.67mm
; infill extrusion width = 0.67mm
; solid infill extrusion width = 0.67mm
; top infill extrusion width = 0.67mm
; support material extrusion width = 0.40mm

M107
M190 S115 ; set bed temperature
M104 S240 ; set temperature
M42 P19 S0
G28 X0 Y0 Z80.9
G92 E0
G1 Z30 F200;(Move away from X/Y endstops)
G1 E10 F20 ;(Move away from X/Y endstops)
G1 E9 F200
G1 Z5 F100

M109 S240 ; wait for temperature to be reached
G21 ; set units to millimeters
G90 ; use absolute coordinates
M82 ; use absolute distances for extrusion
G92 E0
G1 E-3.00000 F2400.00000
G92 E0
G1 Z0.600 F6000.000
G0 X100 Y79 F6000
M0 P1 ;1ms sleep
M42 P19 S255
M0 P100 ;100ms sleep
M42 P19 S0
M0 S5 ;5s sleep

G1 X30.164 Y64.379 F6000.000
G1 Z0.200 F6000.000
G1 E3.00000 F2400.00000
G1 X32.324 Y63.563 E3.01928 F1500.000
G1 X33.550 Y63.444 E3.02956
G1 X101.388 Y63.127 E3.59601
G1 X166.419 Y63.127 E4.13901
G1 X168.694 Y63.524 E4.15829
G1 X170.699 Y64.669 E4.17756 F1500.000
G1 X172.199 Y66.424 E4.19684
G1 X173.015 Y68.584 E4.21612
G1 X173.133 Y69.842 E4.22667
G1 X173.133 Y129.842 E4.72766
G1 X172.736 Y132.116 E4.74694
G1 X171.592 Y134.122 E4.76622
G1 X169.836 Y135.621 E4.78550
G1 X167.676 Y136.437 E4.80477
G1 X166.450 Y136.556 E4.81506
G1 X98.612 Y136.873 E5.38150
G1 X33.581 Y136.873 E5.92450
G1 X31.306 Y136.476 E5.94378
G1 X29.301 Y135.331 E5.96306
G1 X27.801 Y133.576 E5.98234
G1 X26.985 Y131.416 E6.00162
G1 X26.867 Y130.158 E6.01216
G1 X26.867 Y70.158 E6.51315
G1 X27.264 Y67.884 E6.53243
G1 X28.408 Y65.878 E6.55171
G1 X30.118 Y64.418 E6.57049
G1 X30.405 Y64.676 F6000.000
G1 X30.504 Y64.595 E6.57156 F1500.000
G1 X33.551 Y63.801 E6.59785
G1 X101.389 Y63.485 E7.16429
G1 X166.419 Y63.484 E7.70727
G1 X168.630 Y63.881 E7.72603
G1 X170.565 Y65.022 E7.74479 F1500.000
G1 X171.982 Y66.765 E7.76354
G1 X172.776 Y69.842 E7.79007
G1 X172.776 Y129.842 E8.29106
G1 X172.379 Y132.052 E8.30982
G1 X171.238 Y133.987 E8.32857
G1 X169.496 Y135.405 E8.34733
G1 X166.449 Y136.199 E8.37362
G1 X98.611 Y136.515 E8.94006
G1 X33.581 Y136.516 E9.48305
G1 X31.370 Y136.119 E9.50180
G1 X29.435 Y134.978 E9.52056
G1 X28.018 Y133.235 E9.53932
G1 X27.224 Y130.158 E9.56585
G1 X27.224 Y70.158 E10.06684
G1 X27.621 Y67.948 E10.08559
G1 X28.762 Y66.013 E10.10435
G1 X30.359 Y64.714 E10.12154
G1 F4800
G1 X30.504 Y64.595 E10.03239
G1 F4800
G1 X33.551 Y63.801 E8.53682
G1 F4800
G1 X36.215 Y63.789 E7.27154
G1 E7.12154 F2400.00000
G92 E0
G1 Z0.800 F6000.000
G1 X32.620 Y67.837 F6000.000
G1 Z0.200 F6000.000
G1 E3.00000 F2400.00000
G1 X99.542 Y67.837 E3.55879 F1500.000
G1 X99.694 Y67.989 E3.56058
G1 X99.989 Y67.989 E3.56305
G1 X100.458 Y67.521 E3.56858
G1 X167.380 Y67.521 E4.12737
G1 X168.740 Y68.880 E4.14343
G1 X168.740 Y130.803 E4.66047 F1500.000
G1 X167.380 Y132.163 E4.67653
G1 X100.458 Y132.163 E5.23532
G1 X100.306 Y132.011 E5.23711
G1 X100.011 Y132.011 E5.23958
G1 X99.542 Y132.479 E5.24511
G1 X32.620 Y132.479 E5.80390
G1 X31.260 Y131.120 E5.81996
G1 X31.260 Y69.197 E6.33700
G1 X32.577 Y67.880 E6.35255
G1 F4800
G1 X38.577 Y67.876 E3.50256
G1 E3.35255 F2400.00000
G92 E0
G1 Z0.800 F6000.000
G1 X99.989 Y68.494 F6000.000
G1 Z0.200 F6000.000
G1 E3.00000 F2400.00000
G1 X100.606 Y67.878 E3.00728 F1500.000
G1 X167.233 Y67.878 E3.56360
G1 X168.383 Y69.028 E3.57718
G1 X168.383 Y130.655 E4.09176
G1 X167.233 Y131.805 E4.10534
G1 X100.606 Y131.805 E4.66167
G1 X100.306 Y131.506 E4.66520
G1 X100.011 Y131.506 E4.66767
G1 X99.394 Y132.122 E4.67495
G1 X32.767 Y132.122 E5.23127
G1 X31.617 Y130.972 E5.24486
G1 X31.617 Y69.345 E5.75943
G1 X32.767 Y68.195 E5.77301
G1 X99.394 Y68.195 E6.32934
G1 X99.694 Y68.494 E6.33287
G1 X99.929 Y68.494 E6.33484
G1 X99.989 Y68.999 F6000.000
G1 X100.754 Y68.235 E6.34386 F1500.000
G1 X167.085 Y68.235 E6.89772
G1 X168.026 Y69.176 E6.90883
G1 X168.026 Y130.507 E7.42094
G1 X167.085 Y131.448 E7.43205
G1 X100.754 Y131.448 E7.98590
G1 X100.306 Y131.001 E7.99119
G1 X100.011 Y131.001 E7.99366
G1 X99.246 Y131.765 E8.00268
G1 X32.915 Y131.765 E8.55653
G1 X31.974 Y130.824 E8.56765
G1 X31.974 Y69.493 E9.07975
G1 X32.915 Y68.552 E9.09087
G1 X99.246 Y68.552 E9.64472
G1 X99.694 Y68.999 E9.65000
G1 X99.929 Y68.999 E9.65197
G1 X99.989 Y69.504 F6000.000
G1 X100.901 Y68.592 E9.66274 F1500.000
G1 X166.937 Y68.592 E10.21412
G1 X167.669 Y69.324 E10.22277
G1 X167.669 Y130.359 E10.73240
G1 X166.937 Y131.091 E10.74105
G1 X100.901 Y131.091 E11.29243
G1 X100.306 Y130.496 E11.29946
G1 X100.011 Y130.496 E11.30193
G1 X99.099 Y131.408 E11.31269
G1 X33.063 Y131.408 E11.86408
G1 X32.331 Y130.676 E11.87272
G1 X32.331 Y69.641 E12.38236
G1 X33.063 Y68.909 E12.39100
G1 X99.099 Y68.909 E12.94239
G1 X99.694 Y69.504 E12.94941
G1 X99.929 Y69.504 E12.95138
G1 X100.526 Y69.504 F6000.000
G1 X100.526 Y69.472 E12.95165 F1500.000
G1 X101.049 Y68.949 E12.95782
G1 X166.789 Y68.949 E13.50674
G1 X167.312 Y69.472 E13.51291
G1 X167.312 Y130.211 E14.02008 F1500.000
G1 X166.789 Y130.734 E14.02625
G1 X101.049 Y130.734 E14.57517
G1 X100.526 Y130.211 E14.58134
G1 X100.526 Y69.564 E15.08774
G1 X100.883 Y69.620 F6000.000
G1 X101.197 Y69.306 E15.09144 F1500.000
G1 X166.641 Y69.306 E15.63789
G1 X166.955 Y69.620 E15.64159 F1500.000
G1 X166.955 Y130.063 E16.14628
G1 X166.641 Y130.377 E16.14999
G1 X101.197 Y130.377 E16.69643
G1 X100.883 Y130.063 E16.70014
G1 X100.883 Y69.680 E17.20433
G1 X101.345 Y69.663 F6000.000
G1 X166.493 Y69.663 E17.74831 F1500.000
G1 X166.598 Y69.768 E17.74954
G1 X166.598 Y129.916 E18.25176
G1 X166.493 Y130.020 E18.25300
G1 X101.345 Y130.020 E18.79697
G1 X101.241 Y129.916 E18.79821
G1 X101.241 Y69.768 E19.30043
G1 X101.303 Y69.705 E19.30117
G1 X99.474 Y69.789 F6000.000
G1 X99.474 Y130.528 E19.80833 F1500.000
G1 X98.951 Y131.051 E19.81451
G1 X33.211 Y131.051 E20.36342
G1 X32.688 Y130.528 E20.36959
G1 X32.688 Y69.789 E20.87676
G1 X33.211 Y69.266 E20.88293
G1 X98.951 Y69.266 E21.43185
G1 X99.431 Y69.746 E21.43752
G1 X99.117 Y69.937 F6000.000
G1 X99.117 Y130.380 E21.94222 F1500.000
G1 X98.803 Y130.694 E21.94592
G1 X33.359 Y130.694 E22.49237
G1 X33.045 Y130.380 E22.49607
G1 X33.045 Y69.937 E23.00076
G1 X33.359 Y69.623 E23.00447
G1 X98.803 Y69.623 E23.55091
G1 X99.074 Y69.894 E23.55412 F1500.000
G1 X98.759 Y70.084 F6000.000
G1 X98.759 Y130.232 E24.05634 F1500.000
G1 X98.655 Y130.337 E24.05758
G1 X33.507 Y130.337 E24.60155
G1 X33.402 Y130.232 E24.60279
G1 X33.402 Y70.084 E25.10501
G1 X33.507 Y69.980 E25.10624
G1 X98.655 Y69.980 E25.65022
G1 X98.717 Y70.042 E25.65095
G1 F4800
G1 X98.721 Y76.042 E22.80095
G1 E22.65095 F2400.00000
G92 E0
G1 Z0.800 F6000.000
G1 X98.381 Y129.958 F6000.000
G1 Z0.200 F6000.000
G1 E3.00000 F2400.00000
G1 X33.781 Y129.958 E3.53940 F1500.000
G1 X33.781 Y70.358 E4.03705
G1 X98.381 Y70.358 E4.57645
G1 X98.381 Y129.898 E5.07360
G1 X98.034 Y129.758 F6000.000
G1 X98.024 Y129.601 F6000.000
G1 X34.138 Y129.601 E5.60703 F1500.000
G1 X34.138 Y70.716 E6.09872
G1 X98.024 Y70.716 E6.63215
G1 X98.024 Y129.541 E7.12334
G1 X41.914 Y123.728 F6000.000
G1 X41.718 Y124.777 E7.13225 F1500.000
G1 X41.157 Y125.684 E7.14116
G1 X40.305 Y126.328 E7.15007
G1 X39.279 Y126.620 E7.15898
G1 X38.216 Y126.521 E7.16789
G1 X37.261 Y126.045 E7.17680
G1 X36.542 Y125.257 E7.18571
G1 X36.157 Y124.262 E7.19462
G1 X36.157 Y123.195 E7.20352
G1 X36.542 Y122.200 E7.21243
G1 X37.261 Y121.411 E7.22134
G1 X38.216 Y120.936 E7.23025
G1 X39.204 Y120.844 E7.23853
G1 X39.279 Y120.837 E7.23916 F1500.000
G1 X40.305 Y121.129 E7.24807
G1 X41.157 Y121.772 E7.25698
G1 X41.718 Y122.680 E7.26589
G1 X41.903 Y123.669 E7.27430
G1 X42.248 Y123.949 F6000.000
G1 X42.265 Y123.663 F6000.000
G1 X42.278 Y123.728 E7.27486 F1500.000
G1 X42.057 Y124.909 E7.28488
G1 X41.425 Y125.929 E7.29490
G1 X40.467 Y126.653 E7.30493
G1 X39.312 Y126.981 E7.31495
G1 X38.117 Y126.870 E7.32498
G1 X37.042 Y126.335 E7.33500
G1 X36.233 Y125.448 E7.34502
G1 X35.800 Y124.329 E7.35505
G1 X35.800 Y123.128 E7.36507
G1 X36.233 Y122.009 E7.37510
G1 X37.042 Y121.122 E7.38512
G1 X38.117 Y120.586 E7.39514
G1 X39.171 Y120.489 E7.40398
G1 X39.312 Y120.476 E7.40517 F1500.000
G1 X40.467 Y120.804 E7.41519
G1 X41.425 Y121.528 E7.42522
G1 X42.057 Y122.548 E7.43524
G1 X42.254 Y123.604 E7.44421
G1 X39.279 Y79.480 F6000.000
G1 X38.216 Y79.381 E7.45312 F1500.000
G1 X37.261 Y78.905 E7.46203
G1 X36.542 Y78.117 E7.47093
G1 X36.157 Y77.122 E7.47984
G1 X36.157 Y76.055 E7.48875
G1 X36.542 Y75.060 E7.49766
G1 X37.261 Y74.271 E7.50657
G1 X38.216 Y73.796 E7.51548
G1 X39.296 Y73.696 E7.52453 F1500.000
G1 X40.306 Y73.990 E7.53332
G1 X41.157 Y74.632 E7.54222
G1 X41.718 Y75.540 E7.55113
G1 X41.914 Y76.588 E7.56004
G1 X41.718 Y77.637 E7.56895
G1 X41.157 Y78.545 E7.57786
G1 X40.305 Y79.187 E7.58677
G1 X39.336 Y79.463 E7.59518
G1 X39.090 Y79.832 F6000.000
G1 X39.246 Y79.835 F6000.000
G1 X38.117 Y79.730 E7.60464 F1500.000
G1 X37.042 Y79.195 E7.61467
G1 X36.233 Y78.308 E7.62469
G1 X35.800 Y77.189 E7.63471
G1 X35.800 Y75.988 E7.64474
G1 X36.233 Y74.869 E7.65476
G1 X37.042 Y73.982 E7.66479
G1 X38.117 Y73.446 E7.67481
G1 X39.331 Y73.334 E7.68499 F1500.000
G1 X40.468 Y73.665 E7.69488
G1 X41.425 Y74.388 E7.70489
G1 X42.057 Y75.408 E7.71492
G1 X42.278 Y76.588 E7.72494
G1 X42.057 Y77.769 E7.73496
G1 X41.425 Y78.789 E7.74499
G1 X40.467 Y79.513 E7.75501
G1 X39.306 Y79.841 E7.76509
G1 X47.990 Y87.304 F6000.000
G1 X48.828 Y86.405 E7.77535 F1500.000
G1 X49.566 Y85.704 E7.78385
G1 X50.341 Y85.043 E7.79235
G1 X51.148 Y84.423 E7.80085
G1 X51.988 Y83.846 E7.80936
G1 X52.856 Y83.314 E7.81786
G1 X53.751 Y82.828 E7.82636
G1 X54.670 Y82.390 E7.83486
G1 X55.611 Y82.000 E7.84337
G1 X56.570 Y81.660 E7.85187
G1 X57.547 Y81.371 E7.86037
G1 X58.537 Y81.133 E7.86887
G1 X59.538 Y80.948 E7.87738
G1 X60.548 Y80.815 E7.88588
G1 X61.563 Y80.735 E7.89438
G1 X62.566 Y80.709 E7.90276 F1500.000
G1 X63.599 Y80.735 E7.91139
G1 X64.614 Y80.815 E7.91989
G1 X65.624 Y80.948 E7.92839
G1 X66.625 Y81.133 E7.93689
G1 X67.615 Y81.371 E7.94540
G1 X68.591 Y81.660 E7.95390
G1 X69.551 Y82.000 E7.96240
G1 X70.492 Y82.390 E7.97090
G1 X71.411 Y82.828 E7.97941
G1 X72.306 Y83.314 E7.98791
G1 X73.174 Y83.846 E7.99641
G1 X74.013 Y84.423 E8.00491
G1 X74.821 Y85.043 E8.01342
G1 X75.596 Y85.704 E8.02192
G1 X76.334 Y86.405 E8.03042
G1 X77.035 Y87.144 E8.03892
G1 X77.696 Y87.918 E8.04743
G1 X78.325 Y88.738 E8.05605
G1 X78.893 Y89.565 E8.06443
G1 X79.425 Y90.433 E8.07293
G1 X79.911 Y91.328 E8.08144
G1 X80.349 Y92.247 E8.08994
G1 X80.739 Y93.188 E8.09844
G1 X81.079 Y94.148 E8.10694
G1 X81.368 Y95.124 E8.11545
G1 X81.606 Y96.115 E8.12395
G1 X81.791 Y97.116 E8.13245
G1 X81.924 Y98.125 E8.14095
G1 X82.004 Y99.140 E8.14946
G1 X82.031 Y100.158 E8.15796
G1 X82.004 Y101.176 E8.16646
G1 X81.924 Y102.192 E8.17496
G1 X81.791 Y103.201 E8.18347
G1 X81.606 Y104.202 E8.19197
G1 X81.368 Y105.193 E8.20047
G1 X81.079 Y106.169 E8.20897
G1 X80.739 Y107.129 E8.21748
G1 X80.349 Y108.070 E8.22598
G1 X79.911 Y108.989 E8.23448
G1 X79.425 Y109.883 E8.24298
G1 X78.893 Y110.752 E8.25149
G1 X78.316 Y111.591 E8.25999
G1 X77.696 Y112.399 E8.26849
G1 X77.035 Y113.173 E8.27699
G1 X76.334 Y113.912 E8.28550
G1 X75.596 Y114.613 E8.29400
G1 X74.821 Y115.274 E8.30250
G1 X74.013 Y115.894 E8.31100
G1 X73.174 Y116.471 E8.31951
G1 X72.306 Y117.003 E8.32801
G1 X71.411 Y117.489 E8.33651
G1 X70.492 Y117.927 E8.34501
G1 X69.551 Y118.317 E8.35352
G1 X68.591 Y118.657 E8.36202
G1 X67.615 Y118.946 E8.37052
G1 X66.625 Y119.183 E8.37902
G1 X65.624 Y119.369 E8.38753
G1 X64.614 Y119.502 E8.39603
G1 X63.599 Y119.582 E8.40453
G1 X62.581 Y119.609 E8.41303
G1 X61.563 Y119.582 E8.42154
G1 X60.548 Y119.502 E8.43004
G1 X59.538 Y119.369 E8.43854
G1 X58.537 Y119.183 E8.44704
G1 X57.547 Y118.946 E8.45555
G1 X56.570 Y118.657 E8.46405
G1 X55.611 Y118.317 E8.47255
G1 X54.670 Y117.927 E8.48105
G1 X53.751 Y117.489 E8.48956
G1 X52.856 Y117.003 E8.49806
G1 X51.988 Y116.471 E8.50656
G1 X51.148 Y115.894 E8.51506
G1 X50.341 Y115.274 E8.52357
G1 X49.566 Y114.613 E8.53207
G1 X48.828 Y113.912 E8.54057
G1 X48.127 Y113.173 E8.54907
G1 X47.465 Y112.399 E8.55758
G1 X46.845 Y111.591 E8.56608
G1 X46.269 Y110.752 E8.57458
G1 X45.737 Y109.883 E8.58308
G1 X45.251 Y108.989 E8.59159
G1 X44.807 Y108.056 E8.60021
G1 X44.423 Y107.129 E8.60859
G1 X44.083 Y106.169 E8.61709
G1 X43.794 Y105.193 E8.62560
G1 X43.556 Y104.202 E8.63410
G1 X43.370 Y103.201 E8.64260
G1 X43.237 Y102.192 E8.65110
G1 X43.158 Y101.176 E8.65961
G1 X43.131 Y100.158 E8.66811
G1 X43.158 Y99.140 E8.67661
G1 X43.237 Y98.125 E8.68511
G1 X43.370 Y97.116 E8.69362
G1 X43.556 Y96.115 E8.70212
G1 X43.794 Y95.124 E8.71062
G1 X44.083 Y94.148 E8.71912
G1 X44.423 Y93.188 E8.72763
G1 X44.812 Y92.247 E8.73613
G1 X45.251 Y91.328 E8.74463
G1 X45.737 Y90.433 E8.75313
G1 X46.269 Y89.565 E8.76164
G1 X46.845 Y88.726 E8.77014
G1 X47.465 Y87.918 E8.77864
G1 X47.951 Y87.349 E8.78489
G1 X47.868 Y86.923 F6000.000
G1 X47.719 Y87.072 F6000.000
G1 X48.575 Y86.153 E8.79538 F1500.000
G1 X49.327 Y85.439 E8.80404
G1 X50.116 Y84.765 E8.81270
G1 X50.938 Y84.134 E8.82135
G1 X51.793 Y83.547 E8.83001
G1 X52.677 Y83.005 E8.83867
G1 X53.589 Y82.510 E8.84733
G1 X54.525 Y82.064 E8.85599
G1 X55.483 Y81.667 E8.86465
G1 X56.460 Y81.321 E8.87331
G1 X57.454 Y81.026 E8.88196
G1 X58.463 Y80.784 E8.89062
G1 X59.482 Y80.595 E8.89928
G1 X60.510 Y80.460 E8.90794
G1 X61.544 Y80.378 E8.91660
G1 X62.566 Y80.352 E8.92514 F1500.000
G1 X63.617 Y80.378 E8.93392
G1 X64.651 Y80.460 E8.94258
G1 X65.679 Y80.595 E8.95123
G1 X66.699 Y80.784 E8.95989
G1 X67.707 Y81.026 E8.96855
G1 X68.702 Y81.321 E8.97721
G1 X69.679 Y81.667 E8.98587
G1 X70.637 Y82.064 E8.99453
G1 X71.573 Y82.510 E9.00319
G1 X72.485 Y83.005 E9.01184
G1 X73.369 Y83.547 E9.02050
G1 X74.223 Y84.134 E9.02916
G1 X75.046 Y84.765 E9.03782
G1 X75.835 Y85.439 E9.04648
G1 X76.587 Y86.153 E9.05514
G1 X77.301 Y86.905 E9.06380
G1 X77.974 Y87.694 E9.07246
G1 X78.614 Y88.528 E9.08124
G1 X79.193 Y89.371 E9.08977
G1 X79.734 Y90.255 E9.09843
G1 X80.229 Y91.166 E9.10709
G1 X80.676 Y92.102 E9.11575
G1 X81.073 Y93.060 E9.12441
G1 X81.419 Y94.038 E9.13307
G1 X81.713 Y95.032 E9.14172
G1 X81.955 Y96.040 E9.15038
G1 X82.144 Y97.060 E9.15904
G1 X82.280 Y98.088 E9.16770
G1 X82.361 Y99.122 E9.17636
G1 X82.388 Y100.158 E9.18502
G1 X82.361 Y101.195 E9.19368
G1 X82.280 Y102.229 E9.20234
G1 X82.144 Y103.257 E9.21099
G1 X81.955 Y104.277 E9.21965
G1 X81.713 Y105.285 E9.22831
G1 X81.419 Y106.279 E9.23697
G1 X81.073 Y107.257 E9.24563
G1 X80.676 Y108.215 E9.25429
G1 X80.229 Y109.151 E9.26295
G1 X79.734 Y110.062 E9.27160
G1 X79.193 Y110.946 E9.28026
G1 X78.605 Y111.801 E9.28892
G1 X77.974 Y112.624 E9.29758
G1 X77.301 Y113.412 E9.30624
G1 X76.587 Y114.164 E9.31490
G1 X75.835 Y114.878 E9.32356
G1 X75.046 Y115.552 E9.33222
G1 X74.223 Y116.183 E9.34087
G1 X73.369 Y116.770 E9.34953
G1 X72.485 Y117.312 E9.35819
G1 X71.573 Y117.807 E9.36685
G1 X70.637 Y118.253 E9.37551
G1 X69.679 Y118.650 E9.38417
G1 X68.702 Y118.996 E9.39283
G1 X67.707 Y119.291 E9.40148
G1 X66.699 Y119.533 E9.41014
G1 X65.679 Y119.722 E9.41880
G1 X64.651 Y119.857 E9.42746
G1 X63.618 Y119.939 E9.43612
G1 X62.581 Y119.966 E9.44478
G1 X61.544 Y119.939 E9.45344
G1 X60.510 Y119.857 E9.46210
G1 X59.482 Y119.722 E9.47075
G1 X58.463 Y119.533 E9.47941
G1 X57.454 Y119.291 E9.48807
G1 X56.460 Y118.996 E9.49673
G1 X55.483 Y118.650 E9.50539
G1 X54.525 Y118.253 E9.51405
G1 X53.589 Y117.807 E9.52271
G1 X52.677 Y117.312 E9.53136
G1 X51.793 Y116.770 E9.54002
G1 X50.938 Y116.183 E9.54868
G1 X50.116 Y115.552 E9.55734
G1 X49.327 Y114.878 E9.56600
G1 X48.575 Y114.164 E9.57466
G1 X47.861 Y113.412 E9.58332
G1 X47.188 Y112.624 E9.59198
G1 X46.556 Y111.801 E9.60063
G1 X45.969 Y110.946 E9.60929
G1 X45.427 Y110.062 E9.61795
G1 X44.932 Y109.151 E9.62661
G1 X44.480 Y108.201 E9.63539
G1 X44.089 Y107.257 E9.64393
G1 X43.743 Y106.279 E9.65258
G1 X43.449 Y105.285 E9.66124
G1 X43.207 Y104.277 E9.66990
G1 X43.017 Y103.257 E9.67856
G1 X42.882 Y102.229 E9.68722
G1 X42.801 Y101.195 E9.69588
G1 X42.774 Y100.158 E9.70454
G1 X42.801 Y99.122 E9.71320
G1 X42.882 Y98.088 E9.72185
G1 X43.017 Y97.060 E9.73051
G1 X43.207 Y96.040 E9.73917
G1 X43.449 Y95.032 E9.74783
G1 X43.743 Y94.038 E9.75649
