; generated by Slic3r 1.2.9 on 2016-11-24 at 07:07:07

; external perimeters extrusion width = 0.40mm
; perimeters extrusion width = 0.67mm
; infill extrusion width = 0.67mm
; solid infill extrusion width = 0.67mm
; top infill extrusion width = 0.67mm

M107
M190 S115 ; set bed temperature
M104 S240 ; set temperature
M42 P19 S0
G28 X0 Y0 Z80.9
G92 E0
G1 Z30 F200;(Move away from X/Y endstops)
G1 E10 F20 ;(Move away from X/Y endstops)
G1 E9 F200
G1 Z5 F100

M109 S240 ; wait for temperature to be reached
G21 ; set units to millimeters
G90 ; use absolute coordinates
M82 ; use absolute distances for extrusion
G92 E0
G1 E-3.00000 F2400.00000
G92 E0
G1 Z0.600 F6000.000
G0 X100 Y79 F6000
M0 P1 ;1ms sleep
M42 P19 S255
M0 P100 ;100ms sleep
M42 P19 S0
M0 S5 ;5s sleep

G1 X100.651 Y50.011 F6000.000
G1 Z0.200 F6000.000
G1 E3.00000 F2400.00000
G1 X101.881 Y48.132 E3.01876 F1500.000
G1 X103.689 Y46.798 E3.03751
G1 X106.500 Y46.143 E3.06161
G1 X113.500 Y46.143 E3.12006
G1 X115.711 Y46.540 E3.13882
G1 X117.646 Y47.681 E3.15757 F1500.000
G1 X119.063 Y49.423 E3.17633
G1 X119.857 Y52.500 E3.20286
G1 X119.857 Y147.500 E3.99609
G1 X119.460 Y149.711 E4.01485
G1 X118.319 Y151.646 E4.03360
G1 X116.577 Y153.063 E4.05236
G1 X113.500 Y153.857 E4.07889
G1 X106.500 Y153.857 E4.13734
G1 X104.289 Y153.460 E4.15610
G1 X102.354 Y152.319 E4.17485
G1 X101.327 Y151.195 E4.18757
G1 X81.327 Y123.195 E4.47488
G1 X80.365 Y121.165 E4.49363
G1 X80.143 Y119.500 E4.50766
G1 X80.143 Y99.500 E4.67466
G1 X80.651 Y97.011 E4.69587
G1 X100.627 Y50.066 E5.12186
G1 F4800
G1 X101.881 Y48.132 E4.02683
G1 F4800
G1 X103.689 Y46.798 E2.95986
G1 F4800
G1 X105.099 Y46.469 E2.27186
G1 E2.12186 F2400.00000
G92 E0
G1 Z0.800 F6000.000
G1 X110.555 Y88.296 F6000.000
G1 Z0.200 F6000.000
G1 E3.00000 F2400.00000
G1 X106.278 Y88.296 E3.03571 F1500.000
G1 X105.964 Y87.982 E3.03942
G1 X105.964 Y52.278 E3.33754
G1 X106.278 Y51.964 E3.34124
G1 X113.722 Y51.964 E3.40340
G1 X114.036 Y52.278 E3.40710
G1 X114.036 Y90.429 E3.72566
G1 X113.722 Y90.743 E3.72936
G1 X111.078 Y90.743 E3.75144
G1 X110.764 Y90.429 E3.75514
G1 X110.764 Y88.505 E3.77121
G1 X110.598 Y88.338 E3.77318
G1 X110.912 Y87.939 F6000.000
G1 X106.426 Y87.939 E3.81064 F1500.000
G1 X106.321 Y87.834 E3.81187
G1 X106.321 Y52.426 E4.10752
G1 X106.426 Y52.321 E4.10876
G1 X113.574 Y52.321 E4.16844
G1 X113.679 Y52.426 E4.16968
G1 X113.679 Y90.281 E4.48576
G1 X113.574 Y90.386 E4.48700
G1 X111.226 Y90.386 E4.50660
G1 X111.121 Y90.281 E4.50784
G1 X111.121 Y88.148 E4.52565
G1 X110.955 Y87.981 E4.52762
G1 F4800
G1 X106.426 Y87.939 E2.37641
G1 F4800
G1 X106.321 Y87.834 E2.30615
G1 F4800
G1 X106.321 Y86.511 E1.67762
G1 E1.52762 F2400.00000
G92 E0
G1 Z0.800 F6000.000
G1 X110.555 Y95.564 F6000.000
G1 Z0.200 F6000.000
G1 E3.00000 F2400.00000
G1 X110.764 Y95.355 E3.00247 F1500.000
G1 X110.764 Y93.431 E3.01854
G1 X111.078 Y93.117 E3.02224
G1 X113.722 Y93.117 E3.04432
G1 X114.036 Y93.431 E3.04802
G1 X114.036 Y137.569 E3.41657
G1 X113.722 Y137.883 E3.42028
G1 X111.078 Y137.883 E3.44235
G1 X110.764 Y137.569 E3.44606
G1 X110.764 Y135.645 E3.46212
G1 X110.555 Y135.436 E3.46459
G1 X106.278 Y135.436 E3.50031
G1 X105.964 Y135.122 E3.50401
G1 X105.964 Y120.245 E3.62823
G1 X105.755 Y120.036 E3.63070
G1 X86.278 Y120.036 E3.79333
G1 X85.964 Y119.722 E3.79704
G1 X85.964 Y99.278 E3.96774
G1 X86.278 Y98.964 E3.97145
G1 X105.755 Y98.964 E4.13408
G1 X105.964 Y98.755 E4.13655
G1 X105.964 Y95.878 E4.16057
G1 X106.278 Y95.564 E4.16427
G1 X110.495 Y95.564 E4.19949
G1 X110.912 Y95.921 F6000.000
G1 X111.121 Y95.712 E4.20196 F1500.000
G1 X111.121 Y93.579 E4.21977
G1 X111.226 Y93.474 E4.22101
G1 X113.574 Y93.474 E4.24061
G1 X113.679 Y93.579 E4.24185
G1 X113.679 Y137.421 E4.60793
G1 X113.574 Y137.526 E4.60916
G1 X111.226 Y137.526 E4.62876
G1 X111.121 Y137.421 E4.63000
G1 X111.121 Y135.288 E4.64781
G1 X110.912 Y135.079 E4.65028
G1 X106.426 Y135.079 E4.68774
G1 X106.321 Y134.974 E4.68898
G1 X106.321 Y119.888 E4.81495
G1 X106.112 Y119.679 E4.81742
G1 X86.426 Y119.679 E4.98179
G1 X86.321 Y119.574 E4.98303
G1 X86.321 Y99.426 E5.15126
G1 X86.426 Y99.321 E5.15250
G1 X106.112 Y99.321 E5.31687
G1 X106.321 Y99.112 E5.31934
G1 X106.321 Y96.026 E5.34511
G1 X106.426 Y95.921 E5.34635
G1 X110.852 Y95.921 E5.38331
G1 F4800
G1 X111.121 Y95.712 E5.22138
G1 F4800
G1 X111.121 Y93.579 E4.20794
G1 F4800
G1 X111.226 Y93.474 E4.13769
G1 F4800
G1 X113.574 Y93.474 E3.02243
G1 F4800
G1 X113.679 Y93.579 E2.95218
G1 F4800
G1 X113.679 Y94.460 E2.53331
G1 E2.38331 F2400.00000
G92 E0
G1 Z0.800 F6000.000
G1 X110.555 Y142.704 F6000.000
G1 Z0.200 F6000.000
G1 E3.00000 F2400.00000
G1 X110.764 Y142.495 E3.00247 F1500.000
G1 X110.764 Y140.571 E3.01854
G1 X111.078 Y140.257 E3.02224
G1 X113.722 Y140.257 E3.04432
G1 X114.036 Y140.571 E3.04802
G1 X114.036 Y147.722 E3.10773
G1 X113.722 Y148.036 E3.11144
G1 X106.278 Y148.036 E3.17359
G1 X105.964 Y147.722 E3.17730
G1 X105.964 Y143.018 E3.21657
G1 X106.278 Y142.704 E3.22028
G1 X110.495 Y142.704 E3.25549
G1 X110.912 Y143.061 F6000.000
G1 X111.121 Y142.852 E3.25796 F1500.000
G1 X111.121 Y140.719 E3.27577
G1 X111.226 Y140.614 E3.27701
G1 X113.574 Y140.614 E3.29661
G1 X113.679 Y140.719 E3.29785
G1 X113.679 Y147.574 E3.35509
G1 X113.574 Y147.679 E3.35633
G1 X106.426 Y147.679 E3.41601
G1 X106.321 Y147.574 E3.41724
G1 X106.321 Y143.166 E3.45405
G1 X106.426 Y143.061 E3.45528
G1 X110.852 Y143.061 E3.49224
G1 X111.500 Y143.440 F6000.000
G1 X111.500 Y140.993 E3.51268 F1500.000
G1 X113.300 Y140.993 E3.52771
G1 X113.300 Y147.300 E3.58037
G1 X106.700 Y147.300 E3.63548
G1 X106.700 Y143.440 E3.66771
G1 X111.440 Y143.440 E3.70729
G1 X111.900 Y143.440 F6000.000
G1 X111.857 Y143.797 F6000.000
G1 X111.857 Y141.350 E3.72773 F1500.000
G1 X112.943 Y141.350 E3.73679
G1 X112.943 Y146.943 E3.78350
G1 X107.057 Y146.943 E3.83264
G1 X107.057 Y143.797 E3.85891
G1 X111.797 Y143.797 E3.89849
G1 X112.735 Y141.749 F6000.000
G1 X112.544 Y141.557 E3.90079 F1500.000
G1 X112.065 Y141.592 E3.90486
G1 X112.735 Y142.262 E3.91291
G1 X112.735 Y142.775 E3.91726
G1 X112.065 Y142.105 E3.92531
G1 X112.065 Y142.618 E3.92967
G1 X112.735 Y143.289 E3.93771
G1 X112.735 Y143.802 E3.94207
G1 X112.065 Y143.132 E3.95011
G1 X112.065 Y143.645 E3.95447
G1 X112.735 Y144.315 E3.96252
G1 X112.735 Y144.828 E3.96687
G1 X111.911 Y144.005 E3.97676
G1 X111.398 Y144.005 E3.98111
G1 X112.735 Y145.342 E3.99716
G1 X112.735 Y145.855 E4.00152
G1 X110.885 Y144.005 E4.02372
G1 X110.372 Y144.005 E4.02808
G1 X112.735 Y146.368 E4.05645
G1 X112.589 Y146.735 E4.05980
G1 X109.858 Y144.005 E4.09257
G1 X109.345 Y144.005 E4.09693
G1 X112.076 Y146.735 E4.12970
G1 X111.562 Y146.735 E4.13405
G1 X108.832 Y144.005 E4.16682
G1 X108.319 Y144.005 E4.17118
G1 X111.049 Y146.735 E4.20395
G1 X110.536 Y146.735 E4.20831
G1 X107.805 Y144.005 E4.24108
G1 X107.298 Y144.011 E4.24538
G1 X110.023 Y146.735 E4.27807
G1 X109.509 Y146.735 E4.28243
G1 X107.265 Y144.491 E4.30937
G1 X107.265 Y145.004 E4.31372
G1 X108.996 Y146.735 E4.33450
G1 X108.483 Y146.735 E4.33886
G1 X107.265 Y145.517 E4.35348
G1 X107.265 Y146.030 E4.35783
G1 X107.970 Y146.735 E4.36629
G1 X107.456 Y146.735 E4.37065
G1 X107.265 Y146.544 E4.37294
G1 F4800
G1 X107.456 Y146.735 E4.24432
G1 F4800
G1 X107.970 Y146.735 E4.00052
G1 F4800
G1 X107.265 Y146.030 E3.52711
G1 F4800
G1 X107.265 Y145.517 E3.28331
G1 F4800
G1 X108.483 Y146.735 E2.46512
G1 F4800
G1 X108.996 Y146.735 E2.22132
G1 F4800
G1 X107.956 Y145.696 E1.52294
G1 E1.37294 F2400.00000
G92 E0
G1 Z0.800 F6000.000
G1 X111.500 Y134.700 F6000.000
G1 Z0.200 F6000.000
G1 E3.00000 F2400.00000
G1 X106.700 Y134.700 E3.04008 F1500.000
G1 X106.700 Y119.300 E3.16867
G1 X86.700 Y119.300 E3.33566
G1 X86.700 Y99.700 E3.49932
G1 X106.700 Y99.700 E3.66632
G1 X106.700 Y96.300 E3.69471
G1 X111.500 Y96.300 E3.73479
G1 X111.500 Y93.853 E3.75522
G1 X113.300 Y93.853 E3.77025
G1 X113.300 Y137.147 E4.13176
G1 X111.500 Y137.147 E4.14679
G1 X111.500 Y134.760 E4.16672
G1 X111.500 Y134.300 F6000.000
G1 X111.857 Y134.343 F6000.000
G1 X107.057 Y134.343 E4.20680 F1500.000
G1 X107.057 Y118.943 E4.33539
G1 X87.057 Y118.943 E4.50238
G1 X87.057 Y100.057 E4.66008
G1 X107.057 Y100.057 E4.82707
G1 X107.057 Y96.657 E4.85546
G1 X111.857 Y96.657 E4.89554
G1 X111.857 Y94.210 E4.91598
G1 X112.943 Y94.210 E4.92504
G1 X112.943 Y136.790 E5.28059
G1 X111.857 Y136.790 E5.28965
G1 X111.857 Y134.403 E5.30959
G1 X111.515 Y134.135 F6000.000
G1 X107.265 Y129.885 E5.36021 F1500.000
G1 X107.265 Y130.394 E5.36450
G1 X111.006 Y134.135 E5.40905
G1 X110.496 Y134.135 E5.41334
G1 X107.265 Y130.904 E5.45183
G1 X107.265 Y131.413 E5.45612
G1 X109.987 Y134.135 E5.48854
G1 X109.478 Y134.135 E5.49283
G1 X107.265 Y131.922 E5.51918
G1 X107.265 Y132.432 E5.52347
G1 X108.968 Y134.135 E5.54376
G1 X108.459 Y134.135 E5.54805
G1 X107.265 Y132.941 E5.56227
G1 X107.265 Y133.450 E5.56656
G1 X107.950 Y134.135 E5.57472
G1 X107.440 Y134.135 E5.57901
G1 X107.265 Y133.960 E5.58110
G1 F4800
G1 X107.440 Y134.135 E5.46320
G1 F4800
G1 X107.950 Y134.135 E5.22127
G1 F4800
G1 X107.265 Y133.450 E4.76122
G1 F4800
G1 X107.265 Y132.941 E4.51929
G1 F4800
G1 X108.459 Y134.135 E3.71711
G1 F4800
G1 X108.968 Y134.135 E3.47517
G1 F4800
G1 X107.861 Y133.028 E2.73110
G1 E2.58110 F2400.00000
G92 E0
G1 Z0.800 F6000.000
G1 X112.434 Y136.583 F6000.000
G1 Z0.200 F6000.000
G1 E3.00000 F2400.00000
G1 X112.065 Y136.213 E3.00440 F1500.000
G1 X112.065 Y135.704 E3.00869
G1 X112.735 Y136.374 E3.01667
G1 X112.735 Y135.865 E3.02096
G1 X112.065 Y135.194 E3.02895
G1 X112.065 Y134.685 E3.03324
G1 X112.735 Y135.356 E3.04122
G1 X112.735 Y134.846 E3.04551
G1 X107.265 Y129.376 E3.11066
G1 X107.265 Y128.866 E3.11495
G1 X112.735 Y134.337 E3.18011
G1 X112.735 Y133.828 E3.18440
G1 X107.265 Y128.357 E3.24955
G1 X107.265 Y127.848 E3.25384
G1 X112.735 Y133.318 E3.31899
G1 X112.735 Y132.809 E3.32328
G1 X107.265 Y127.338 E3.38843
G1 X107.265 Y126.829 E3.39272
G1 X112.735 Y132.300 E3.45787
G1 X112.735 Y131.790 E3.46216
G1 X107.265 Y126.320 E3.52732
G1 X107.265 Y125.810 E3.53161
G1 X112.735 Y131.281 E3.59676
G1 X112.735 Y130.772 E3.60105
G1 X107.265 Y125.301 E3.66620
G1 X107.265 Y124.792 E3.67049
G1 X112.735 Y130.262 E3.73564
G1 X112.735 Y129.753 E3.73993
G1 X107.265 Y124.282 E3.80508
G1 X107.265 Y123.773 E3.80937
G1 X112.735 Y129.244 E3.87453
G1 X112.735 Y128.734 E3.87882
G1 X107.265 Y123.264 E3.94397
G1 X107.265 Y122.754 E3.94826
G1 X112.735 Y128.225 E4.01341
G1 X112.735 Y127.716 E4.01770
G1 X107.265 Y122.245 E4.08285
G1 X107.265 Y121.736 E4.08714
G1 X112.735 Y127.206 E4.15229
G1 X112.735 Y126.697 E4.15658
G1 X107.265 Y121.226 E4.22174
G1 X107.265 Y120.717 E4.22603
G1 X112.735 Y126.188 E4.29118
G1 X112.735 Y125.678 E4.29547
G1 X107.265 Y120.208 E4.36062
G1 X107.265 Y119.698 E4.36491
G1 X112.735 Y125.169 E4.43006
G1 X112.735 Y124.660 E4.43435
G1 X107.265 Y119.189 E4.49950
G1 X87.456 Y118.735 F6000.000
G1 X87.265 Y118.544 E4.50178 F1500.000
G1 X87.265 Y118.034 E4.50607
G1 X87.966 Y118.735 E4.51442
G1 X88.475 Y118.735 E4.51871
G1 X87.265 Y117.525 E4.53312
G1 X87.265 Y117.016 E4.53741
G1 X88.984 Y118.735 E4.55789
G1 X89.494 Y118.735 E4.56218
G1 X87.265 Y116.506 E4.58872
G1 X87.265 Y115.997 E4.59301
G1 X90.003 Y118.735 E4.62562
G1 X90.512 Y118.735 E4.62991
G1 X87.265 Y115.488 E4.66859
G1 X87.265 Y114.978 E4.67288
G1 X91.022 Y118.735 E4.71762
G1 X91.531 Y118.735 E4.72191
G1 X87.265 Y114.469 E4.77272
G1 X87.265 Y113.960 E4.77701
G1 X92.040 Y118.735 E4.83388
G1 X92.550 Y118.735 E4.83817
G1 X87.265 Y113.450 E4.90112
G1 X87.265 Y112.941 E4.90540
G1 X93.059 Y118.735 E4.97441
G1 X93.568 Y118.735 E4.97870
G1 X87.265 Y112.432 E5.05378
G1 X87.265 Y111.922 E5.05806
G1 X94.078 Y118.735 E5.13921
G1 X94.587 Y118.735 E5.14349
G1 X87.265 Y111.413 E5.23070
G1 X87.265 Y110.904 E5.23499
G1 X95.096 Y118.735 E5.32826
G1 X95.606 Y118.735 E5.33255
G1 X87.265 Y110.394 E5.43189
G1 X87.265 Y109.885 E5.43618
G1 X96.115 Y118.735 E5.54158
G1 X96.624 Y118.735 E5.54587
G1 X87.265 Y109.376 E5.65735
G1 X87.265 Y108.866 E5.66163
G1 X97.134 Y118.735 E5.77917
G1 X97.643 Y118.735 E5.78346
G1 X87.265 Y108.357 E5.90706
G1 X87.265 Y107.848 E5.91135
G1 X98.152 Y118.735 E6.04102
G1 X98.662 Y118.735 E6.04531
G1 X87.265 Y107.338 E6.18105
G1 X87.265 Y106.829 E6.18534
G1 X99.171 Y118.735 E6.32714
G1 X99.680 Y118.735 E6.33143
G1 X87.265 Y106.320 E6.47930
G1 X87.265 Y105.810 E6.48359
G1 X100.190 Y118.735 E6.63752
G1 X100.699 Y118.735 E6.64181
G1 X87.265 Y105.301 E6.80181
G1 X87.265 Y104.792 E6.80610
G1 X101.208 Y118.735 E6.97217
G1 X101.718 Y118.735 E6.97646
G1 X87.265 Y104.282 E7.14859
G1 X87.265 Y103.773 E7.15288
G1 X102.227 Y118.735 E7.33108
G1 X102.736 Y118.735 E7.33537
G1 X87.265 Y103.264 E7.51963
G1 X87.265 Y102.754 E7.52392
G1 X103.246 Y118.735 E7.71425
G1 X103.755 Y118.735 E7.71854
G1 X87.265 Y102.245 E7.91494
G1 X87.265 Y101.736 E7.91923
G1 X104.264 Y118.735 E8.12169
G1 X104.774 Y118.735 E8.12598
G1 X87.265 Y101.226 E8.33451
G1 X87.265 Y100.717 E8.33880
G1 X105.283 Y118.735 E8.55340
G1 X105.792 Y118.735 E8.55769
G1 X87.322 Y100.265 E8.77767
G1 X87.831 Y100.265 E8.78196
G1 X106.302 Y118.735 E9.00194
G1 X106.811 Y118.735 E9.00623
G1 X88.340 Y100.265 E9.22622
G1 X88.850 Y100.265 E9.23051
G1 X112.735 Y124.150 E9.51498
G1 X112.735 Y123.641 E9.51927
G1 X89.359 Y100.265 E9.79768
G1 X89.868 Y100.265 E9.80197
G1 X112.735 Y123.132 E10.07431
G1 X112.735 Y122.622 E10.07860
G1 X90.378 Y100.265 E10.34488
G1 X90.887 Y100.265 E10.34917
G1 X112.735 Y122.113 E10.60938
G1 X112.735 Y121.604 E10.61367
G1 X91.396 Y100.265 E10.86782
G1 X91.906 Y100.265 E10.87211
G1 X112.735 Y121.094 E11.12019
G1 X112.735 Y120.585 E11.12448
G1 X92.415 Y100.265 E11.36649
G1 X92.924 Y100.265 E11.37078
G1 X112.735 Y120.076 E11.60673
G1 X112.735 Y119.566 E11.61101
G1 X93.434 Y100.265 E11.84090
G1 X93.943 Y100.265 E11.84518
G1 X112.735 Y119.057 E12.06900
G1 X112.735 Y118.548 E12.07329
G1 X94.452 Y100.265 E12.29104
G1 X94.962 Y100.265 E12.29533
G1 X112.735 Y118.038 E12.50701
G1 X112.735 Y117.529 E12.51130
G1 X95.471 Y100.265 E12.71691
G1 X95.980 Y100.265 E12.72120
G1 X112.735 Y117.020 E12.92075
G1 X112.735 Y116.510 E12.92504
G1 X96.490 Y100.265 E13.11853
G1 X96.999 Y100.265 E13.12282
G1 X112.735 Y116.001 E13.31023
G1 X112.735 Y115.492 E13.31452
G1 X97.508 Y100.265 E13.49587
G1 X98.018 Y100.265 E13.50016
G1 X112.735 Y114.982 E13.67545
G1 X112.735 Y114.473 E13.67974
G1 X98.527 Y100.265 E13.84896
G1 X99.036 Y100.265 E13.85325
G1 X112.735 Y113.964 E14.01640
G1 X112.735 Y113.454 E14.02069
G1 X99.546 Y100.265 E14.17777
G1 X100.055 Y100.265 E14.18206
G1 X112.735 Y112.945 E14.33308
G1 X112.735 Y112.436 E14.33737
G1 X100.564 Y100.265 E14.48233
G1 X101.074 Y100.265 E14.48662
G1 X112.735 Y111.926 E14.62550
G1 X112.735 Y111.417 E14.62979
G1 X101.583 Y100.265 E14.76262
G1 X102.092 Y100.265 E14.76691
G1 X112.735 Y110.908 E14.89366
G1 X112.735 Y110.398 E14.89795
G1 X102.602 Y100.265 E15.01864
G1 X103.111 Y100.265 E15.02293
G1 X112.735 Y109.889 E15.13755
G1 X112.735 Y109.380 E15.14184
G1 X103.620 Y100.265 E15.25040
G1 X104.130 Y100.265 E15.25469
G1 X112.735 Y108.870 E15.35718
G1 X112.735 Y108.361 E15.36147
G1 X104.639 Y100.265 E15.45789
G1 X105.148 Y100.265 E15.46218
G1 X112.735 Y107.852 E15.55254
G1 X112.735 Y107.342 E15.55683
G1 X105.658 Y100.265 E15.64112
G1 X106.167 Y100.265 E15.64541
G1 X112.735 Y106.833 E15.72364
G1 X112.735 Y106.324 E15.72793
G1 X106.676 Y100.265 E15.80009
G1 X107.186 Y100.265 E15.80438
G1 X112.735 Y105.814 E15.87047
G1 X112.735 Y105.305 E15.87476
G1 X107.265 Y99.834 E15.93991
G1 X107.265 Y99.325 E15.94420
G1 X112.735 Y104.796 E16.00935
G1 X112.735 Y104.286 E16.01364
G1 X107.265 Y98.816 E16.07880
G1 X107.265 Y98.306 E16.08309
G1 X112.735 Y103.777 E16.14824
G1 X112.735 Y103.268 E16.15253
G1 X107.265 Y97.797 E16.21768
G1 X107.265 Y97.288 E16.22197
G1 X112.735 Y102.758 E16.28712
G1 X112.735 Y102.249 E16.29141
G1 X107.351 Y96.865 E16.35554
G1 X107.860 Y96.865 E16.35983
G1 X112.735 Y101.740 E16.41789
G1 X112.735 Y101.230 E16.42218
G1 X108.370 Y96.865 E16.47417
G1 X108.879 Y96.865 E16.47846
G1 X112.735 Y100.721 E16.52439
G1 X112.735 Y100.212 E16.52868
G1 X109.388 Y96.865 E16.56854
G1 X109.898 Y96.865 E16.57283
G1 X112.735 Y99.702 E16.60662
