; generated by Slic3r 1.2.9 on 2016-11-24 at 15:20:00

; external perimeters extrusion width = 0.40mm
; perimeters extrusion width = 0.67mm
; infill extrusion width = 0.67mm
; solid infill extrusion width = 0.67mm
; top infill extrusion width = 0.67mm
; support material extrusion width = 0.40mm

M107
M190 S115 ; set bed temperature
M104 S240 ; set temperature
M42 P19 S0
G28 X0 Y0 Z80.9
G92 E0
G1 Z30 F200;(Move away from X/Y endstops)
G1 E10 F20 ;(Move away from X/Y endstops)
G1 E9 F200
G1 Z5 F100

M109 S240 ; wait for temperature to be reached
G21 ; set units to millimeters
G90 ; use absolute coordinates
M82 ; use absolute distances for extrusion
G92 E0
G1 E-3.00000 F2400.00000
G92 E0
G1 Z0.600 F6000.000
G0 X100 Y79 F6000
M0 P1 ;1ms sleep
M42 P19 S255
M0 P100 ;100ms sleep
M42 P19 S0
M0 S5 ;5s sleep

G1 X81.520 Y61.479 F6000.000
G1 Z0.200 F6000.000
G1 E3.00000 F2400.00000
G1 X83.459 Y60.116 E3.01979 F1500.000
G1 X86.500 Y59.429 E3.04582
G1 X93.500 Y59.429 E3.10427
G1 X95.837 Y59.826 E3.12406
G1 X97.911 Y60.973 E3.14385 F1500.000
G1 X100.007 Y63.731 E3.17278
G1 X120.007 Y110.731 E3.59927
G1 X120.571 Y113.500 E3.62287
G1 X120.571 Y133.500 E3.78986
G1 X120.174 Y135.837 E3.80965
G1 X119.027 Y137.911 E3.82944
G1 X117.259 Y139.489 E3.84923
G1 X115.069 Y140.395 E3.86902
G1 X113.500 Y140.571 E3.88221
G1 X86.500 Y140.571 E4.10765
G1 X84.163 Y140.174 E4.12744
G1 X82.089 Y139.027 E4.14723
G1 X80.511 Y137.259 E4.16702
G1 X79.605 Y135.069 E4.18681
G1 X79.434 Y133.783 E4.19764
G1 X78.291 Y105.283 E4.43580
G1 X78.286 Y76.311 E4.67772
G1 X78.333 Y75.492 E4.68456
G1 X79.476 Y65.682 E4.76703
G1 X80.141 Y63.407 E4.78682
G1 X81.485 Y61.528 E4.80611
G1 X81.820 Y61.700 F6000.000
G1 X81.857 Y61.650 E4.80663 F1500.000
G1 X83.775 Y60.364 E4.82591
G1 X86.500 Y59.786 E4.84917
G1 X93.500 Y59.786 E4.90762
G1 X95.775 Y60.183 E4.92690
G1 X97.780 Y61.327 E4.94618 F1500.000
G1 X99.678 Y63.871 E4.97268
G1 X119.678 Y110.871 E5.39918
G1 X120.214 Y113.500 E5.42158
G1 X120.214 Y133.500 E5.58858
G1 X119.817 Y135.775 E5.60786
G1 X118.673 Y137.780 E5.62714
G1 X116.917 Y139.280 E5.64642
G1 X114.757 Y140.095 E5.66570
G1 X113.500 Y140.214 E5.67624
G1 X86.500 Y140.214 E5.90168
G1 X84.225 Y139.817 E5.92096
G1 X82.220 Y138.673 E5.94024
G1 X80.720 Y136.917 E5.95952
G1 X79.791 Y133.769 E5.98693
G1 X78.648 Y105.269 E6.22509
G1 X78.643 Y76.311 E6.46689
G1 X78.688 Y75.534 E6.47339
G1 X79.831 Y65.723 E6.55586
G1 X80.489 Y63.510 E6.57514
G1 X81.785 Y61.748 E6.59340
G1 X82.117 Y61.925 F6000.000
G1 X82.193 Y61.824 E6.59445 F1500.000
G1 X84.088 Y60.618 E6.61321
G1 X86.500 Y60.143 E6.63373
G1 X93.500 Y60.143 E6.69218
G1 X95.711 Y60.540 E6.71094
G1 X97.646 Y61.681 E6.72969 F1500.000
G1 X99.349 Y64.011 E6.75380
G1 X119.349 Y111.011 E7.18029
G1 X119.857 Y113.500 E7.20150
G1 X119.857 Y133.500 E7.36850
G1 X119.460 Y135.711 E7.38726
G1 X118.319 Y137.646 E7.40601
G1 X116.577 Y139.063 E7.42477
G1 X113.500 Y139.857 E7.45130
G1 X86.500 Y139.857 E7.67674
G1 X84.289 Y139.460 E7.69550
G1 X82.354 Y138.319 E7.71425
G1 X80.937 Y136.577 E7.73301
G1 X80.148 Y133.755 E7.75747
G1 X79.005 Y105.255 E7.99564
G1 X79.000 Y76.311 E8.23731
G1 X79.043 Y75.575 E8.24347
G1 X80.186 Y65.764 E8.32594
G1 X80.836 Y63.614 E8.34469
G1 X82.080 Y61.973 E8.36189
G1 F4800
G1 X82.193 Y61.824 E8.27344
G1 F4800
G1 X84.088 Y60.618 E7.20647
G1 F4800
G1 X86.500 Y60.143 E6.03870
G1 F4800
G1 X87.609 Y60.143 E5.51190
G1 E5.36189 F2400.00000
G92 E0
G1 Z0.800 F6000.000
G1 X84.955 Y64.763 F6000.000
G1 Z0.200 F6000.000
G1 E3.00000 F2400.00000
G1 X85.539 Y64.179 E3.00690 F1500.000
G1 X94.461 Y64.179 E3.08140
G1 X95.821 Y65.539 E3.09745
G1 X95.821 Y110.970 E3.47680 F1500.000
G1 X96.030 Y111.179 E3.47927
G1 X114.461 Y111.179 E3.63316
G1 X115.821 Y112.539 E3.64922
G1 X115.821 Y134.461 E3.83227
G1 X114.461 Y135.821 E3.84833
G1 X85.539 Y135.821 E4.08983
G1 X84.179 Y134.461 E4.10588
G1 X84.179 Y107.125 E4.33414
G1 X84.073 Y106.952 E4.33583
G1 X83.279 Y106.555 E4.34324
G1 X82.672 Y104.730 E4.35930
G1 X82.921 Y104.234 E4.36393
G1 X82.934 Y104.100 E4.36505
G1 X82.792 Y103.604 E4.36936
G1 X82.873 Y102.736 E4.37664
G1 X84.160 Y100.168 E4.40062
G1 X84.179 Y100.087 E4.40131
G1 X84.179 Y80.030 E4.56879
G1 X84.073 Y79.857 E4.57049
G1 X83.279 Y79.459 E4.57790
G1 X82.672 Y77.635 E4.59396
G1 X82.921 Y77.139 E4.59859
G1 X82.934 Y77.005 E4.59971
G1 X82.792 Y76.508 E4.60402
G1 X82.873 Y75.640 E4.61130
G1 X84.160 Y73.073 E4.63528
G1 X84.179 Y72.992 E4.63597
G1 X84.179 Y65.539 E4.69821
G1 X84.912 Y64.805 E4.70687
G1 X85.207 Y65.015 F6000.000
G1 X85.687 Y64.536 E4.71253 F1500.000
G1 X94.313 Y64.536 E4.78456
G1 X95.464 Y65.687 E4.79814 F1500.000
G1 X95.464 Y111.327 E5.17923
G1 X95.673 Y111.536 E5.18170
G1 X114.313 Y111.536 E5.33735
G1 X115.464 Y112.687 E5.35093
G1 X115.464 Y134.313 E5.53151
G1 X114.313 Y135.464 E5.54510
G1 X85.687 Y135.464 E5.78413
G1 X84.536 Y134.313 E5.79771
G1 X84.536 Y106.904 E6.02658
G1 X84.430 Y106.732 E6.02827
G1 X83.571 Y106.302 E6.03629
G1 X83.058 Y104.758 E6.04987
G1 X83.303 Y104.270 E6.05443
G1 X83.315 Y104.136 E6.05555
G1 X83.154 Y103.570 E6.06046
G1 X83.222 Y102.836 E6.06662
G1 X84.398 Y100.490 E6.08853
G1 X84.536 Y100.302 E6.09048
G1 X84.536 Y79.809 E6.26159
G1 X84.430 Y79.637 E6.26328
G1 X83.571 Y79.206 E6.27130
G1 X83.058 Y77.662 E6.28489
G1 X83.303 Y77.174 E6.28945
G1 X83.315 Y77.041 E6.29057
G1 X83.154 Y76.475 E6.29548
G1 X83.222 Y75.741 E6.30164
G1 X84.398 Y73.395 E6.32355
G1 X84.536 Y73.207 E6.32549
G1 X84.536 Y65.687 E6.38829
G1 X85.165 Y65.058 E6.39571
G1 X85.460 Y65.268 F6000.000
G1 X85.834 Y64.893 E6.40014 F1500.000
G1 X94.166 Y64.893 E6.46970
G1 X95.107 Y65.834 E6.48082
G1 X95.107 Y111.684 E6.86365 F1500.000
G1 X95.316 Y111.893 E6.86612
G1 X114.166 Y111.893 E7.02351
G1 X115.107 Y112.834 E7.03463
G1 X115.107 Y134.166 E7.21274
G1 X114.166 Y135.107 E7.22385
G1 X85.834 Y135.107 E7.46041
G1 X84.893 Y134.166 E7.47153
G1 X84.893 Y106.684 E7.70100
G1 X84.787 Y106.511 E7.70269
G1 X83.863 Y106.049 E7.71131
G1 X83.443 Y104.785 E7.72243
G1 X83.684 Y104.305 E7.72691
G1 X83.697 Y104.172 E7.72803
G1 X83.515 Y103.537 E7.73354
G1 X83.572 Y102.936 E7.73858
G1 X84.651 Y100.782 E7.75870
G1 X84.758 Y100.747 E7.75964
G1 X84.893 Y100.560 E7.76157
G1 X84.893 Y79.589 E7.93667
G1 X84.787 Y79.416 E7.93836
G1 X83.863 Y78.953 E7.94699
G1 X83.443 Y77.690 E7.95810
G1 X83.684 Y77.210 E7.96259
G1 X83.697 Y77.077 E7.96371
G1 X83.515 Y76.441 E7.96922
G1 X83.572 Y75.841 E7.97426
G1 X84.651 Y73.687 E7.99437
G1 X84.758 Y73.652 E7.99532
G1 X84.893 Y73.464 E7.99724
G1 X84.893 Y65.834 E8.06095
G1 X85.417 Y65.310 E8.06714
G1 X85.712 Y65.520 F6000.000
G1 X85.982 Y65.250 E8.07033 F1500.000
G1 X94.018 Y65.250 E8.13743
G1 X94.750 Y65.982 E8.14607 F1500.000
G1 X94.750 Y112.041 E8.53065
G1 X94.959 Y112.250 E8.53312
G1 X114.018 Y112.250 E8.69226
G1 X114.750 Y112.982 E8.70090
G1 X114.750 Y134.018 E8.87655
G1 X114.018 Y134.750 E8.88519
G1 X85.982 Y134.750 E9.11928
G1 X85.250 Y134.018 E9.12793
G1 X85.250 Y106.463 E9.35800
G1 X85.144 Y106.291 E9.35969
G1 X84.155 Y105.796 E9.36892
G1 X83.829 Y104.813 E9.37757
G1 X84.066 Y104.341 E9.38198
G1 X84.078 Y104.208 E9.38310
G1 X83.877 Y103.503 E9.38921
G1 X83.921 Y103.036 E9.39313
G1 X84.904 Y101.075 E9.41145
G1 X85.115 Y101.004 E9.41331
G1 X85.250 Y100.817 E9.41523
G1 X85.250 Y79.368 E9.59433
G1 X85.144 Y79.196 E9.59602
G1 X84.155 Y78.700 E9.60525
G1 X83.829 Y77.718 E9.61390
G1 X84.066 Y77.246 E9.61831
G1 X84.078 Y77.112 E9.61943
G1 X83.877 Y76.408 E9.62554
G1 X83.921 Y75.941 E9.62946
G1 X84.904 Y73.979 E9.64778
G1 X85.115 Y73.909 E9.64964
G1 X85.250 Y73.722 E9.65157
G1 X85.250 Y65.982 E9.71619
G1 X85.670 Y65.563 E9.72115
G1 X85.965 Y65.773 F6000.000
G1 X86.130 Y65.607 E9.72310 F1500.000
G1 X93.870 Y65.607 E9.78773
G1 X94.393 Y66.130 E9.79390
G1 X94.393 Y112.398 E10.18023 F1500.000
G1 X94.602 Y112.607 E10.18270
G1 X113.870 Y112.607 E10.34358
G1 X114.393 Y113.130 E10.34976
G1 X114.393 Y133.870 E10.52293
G1 X113.870 Y134.393 E10.52910
G1 X86.130 Y134.393 E10.76072
G1 X85.607 Y133.870 E10.76690
G1 X85.607 Y106.243 E10.99758
G1 X85.501 Y106.071 E10.99927
G1 X84.448 Y105.543 E11.00911
G1 X84.214 Y104.841 E11.01528
G1 X84.495 Y104.281 E11.02051
G1 X84.476 Y104.077 E11.02222
G1 X84.374 Y103.942 E11.02364
G1 X84.239 Y103.470 E11.02774
G1 X84.270 Y103.136 E11.03054
G1 X85.157 Y101.367 E11.04706
G1 X85.472 Y101.262 E11.04984
G1 X85.607 Y101.075 E11.05176
G1 X85.607 Y79.148 E11.23485
G1 X85.501 Y78.975 E11.23654
G1 X84.448 Y78.447 E11.24638
G1 X84.214 Y77.746 E11.25256
G1 X84.495 Y77.185 E11.25779
G1 X84.476 Y76.982 E11.25949
G1 X84.374 Y76.847 E11.26091
G1 X84.239 Y76.374 E11.26501
G1 X84.270 Y76.041 E11.26781
G1 X85.157 Y74.272 E11.28433
G1 X85.472 Y74.167 E11.28711
G1 X85.607 Y73.980 E11.28904
G1 X85.607 Y66.130 E11.35458
G1 X85.922 Y65.815 E11.35830
G1 F4800
G1 X86.130 Y65.607 E11.21855
G1 F4800
G1 X91.836 Y65.607 E8.50830
G1 E8.35830 F2400.00000
G92 E0
G1 Z0.800 F6000.000
G1 X85.964 Y78.728 F6000.000
G1 Z0.200 F6000.000
G1 E3.00000 F2400.00000
G1 X85.668 Y78.515 E3.00305 F1500.000
G1 X85.494 Y78.572 E3.00458
G1 X84.740 Y78.194 E3.01163
G1 X84.600 Y77.773 E3.01533
G1 X84.914 Y77.147 E3.02118
G1 X84.895 Y76.943 E3.02289
G1 X84.699 Y76.684 E3.02561
G1 X84.601 Y76.341 E3.02859
G1 X84.619 Y76.141 E3.03027
G1 X85.410 Y74.564 E3.04499
G1 X85.829 Y74.424 E3.04869
G1 X85.964 Y74.237 E3.05061
G1 X85.964 Y66.278 E3.11707
G1 X86.278 Y65.964 E3.12077
G1 X93.722 Y65.964 E3.18293
G1 X94.036 Y66.278 E3.18663
G1 X94.036 Y112.755 E3.57471
G1 X94.245 Y112.964 E3.57718
G1 X113.722 Y112.964 E3.73981
G1 X114.036 Y113.278 E3.74351
G1 X114.036 Y133.722 E3.91421
G1 X113.722 Y134.036 E3.91792
G1 X86.278 Y134.036 E4.14707
G1 X85.964 Y133.722 E4.15078
G1 X85.964 Y105.824 E4.38372
G1 X85.668 Y105.610 E4.38677
G1 X85.494 Y105.668 E4.38830
G1 X84.740 Y105.290 E4.39534
G1 X84.600 Y104.869 E4.39905
G1 X84.914 Y104.242 E4.40490
G1 X84.895 Y104.039 E4.40661
G1 X84.699 Y103.780 E4.40932
G1 X84.601 Y103.436 E4.41230
G1 X84.619 Y103.236 E4.41398
G1 X85.410 Y101.659 E4.42871
G1 X85.829 Y101.520 E4.43240
G1 X85.964 Y101.333 E4.43433
G1 X85.964 Y78.788 E4.62257
G1 X86.321 Y78.052 F6000.000
G1 X85.772 Y77.922 E4.62729 F1500.000
G1 X85.662 Y78.140 E4.62933
G1 X85.522 Y78.187 E4.63056
G1 X85.032 Y77.941 E4.63514
G1 X84.985 Y77.801 E4.63637
G1 X85.389 Y76.995 E4.64390
G1 X85.313 Y76.728 E4.64622
G1 X85.064 Y76.575 E4.64866
G1 X85.024 Y76.522 E4.64922
G1 X84.962 Y76.308 E4.65108
G1 X84.969 Y76.241 E4.65164
G1 X85.663 Y74.856 E4.66457
G1 X85.803 Y74.809 E4.66581
G1 X85.982 Y74.899 E4.66748
G1 X86.321 Y74.690 E4.67081
G1 X86.321 Y66.426 E4.73981
G1 X86.426 Y66.321 E4.74105
G1 X93.574 Y66.321 E4.80073
G1 X93.679 Y66.426 E4.80196
G1 X93.679 Y113.112 E5.19179
G1 X93.888 Y113.321 E5.19426
G1 X113.574 Y113.321 E5.35863
G1 X113.679 Y113.426 E5.35987
G1 X113.679 Y133.574 E5.52810
G1 X113.574 Y133.679 E5.52933
G1 X86.426 Y133.679 E5.75602
G1 X86.321 Y133.574 E5.75725
G1 X86.321 Y105.147 E5.99461
G1 X85.772 Y105.017 E5.99932
G1 X85.662 Y105.236 E6.00136
G1 X85.522 Y105.282 E6.00260
G1 X85.032 Y105.037 E6.00717
G1 X84.985 Y104.896 E6.00841
G1 X85.389 Y104.091 E6.01593
G1 X85.313 Y103.823 E6.01826
G1 X85.064 Y103.671 E6.02069
G1 X85.024 Y103.617 E6.02125
G1 X84.962 Y103.403 E6.02311
G1 X84.969 Y103.336 E6.02367
G1 X85.663 Y101.951 E6.03661
G1 X85.803 Y101.905 E6.03784
G1 X85.982 Y101.995 E6.03952
G1 X86.321 Y101.785 E6.04284
G1 X86.321 Y78.112 E6.24051
G1 F4800
G1 X85.772 Y77.922 E5.96422
G1 F4800
G1 X85.662 Y78.140 E5.84823
G1 F4800
G1 X85.522 Y78.187 E5.77797
G1 F4800
G1 X85.032 Y77.941 E5.51771
G1 F4800
G1 X84.985 Y77.801 E5.44746
G1 F4800
G1 X85.389 Y76.995 E5.01930
G1 F4800
G1 X85.313 Y76.728 E4.88723
G1 F4800
G1 X85.064 Y76.575 E4.74850
G1 F4800
G1 X85.024 Y76.522 E4.71664
G1 F4800
G1 X84.962 Y76.308 E4.61082
G1 F4800
G1 X84.969 Y76.241 E4.57896
G1 F4800
G1 X85.663 Y74.856 E3.84324
G1 F4800
G1 X85.803 Y74.809 E3.77298
G1 F4800
G1 X85.982 Y74.899 E3.67767
G1 F4800
G1 X86.321 Y74.690 E3.48843
G1 F4800
G1 X86.321 Y74.484 E3.39051
G1 E3.24051 F2400.00000
G92 E0
G1 Z0.800 F6000.000
G1 X93.300 Y113.700 F6000.000
G1 Z0.200 F6000.000
G1 E3.00000 F2400.00000
G1 X113.300 Y113.700 E3.16700 F1500.000
G1 X113.300 Y133.300 E3.33065
G1 X86.700 Y133.300 E3.55276
G1 X86.700 Y66.700 E4.10886
G1 X93.300 Y66.700 E4.16397
G1 X93.300 Y113.640 E4.55591
G1 X93.300 Y114.100 F6000.000
G1 X92.943 Y114.057 F6000.000
G1 X112.943 Y114.057 E4.72290 F1500.000
G1 X112.943 Y132.943 E4.88060
G1 X87.057 Y132.943 E5.09674
G1 X87.057 Y67.057 E5.64687
G1 X92.943 Y67.057 E5.69602
G1 X92.943 Y113.997 E6.08796
G1 X112.133 Y114.265 F6000.000
G1 X112.735 Y114.867 E6.09511 F1500.000
G1 X112.735 Y115.375 E6.09937
G1 X111.625 Y114.265 E6.11255
G1 X111.117 Y114.265 E6.11681
G1 X112.735 Y115.882 E6.13601
G1 X112.735 Y116.390 E6.14027
G1 X110.610 Y114.265 E6.16550
G1 X110.102 Y114.265 E6.16976
G1 X112.735 Y116.898 E6.20101
G1 X112.735 Y117.405 E6.20527
G1 X109.595 Y114.265 E6.24255
G1 X109.087 Y114.265 E6.24681
G1 X112.735 Y117.913 E6.29011
G1 X112.735 Y118.421 E6.29437
G1 X108.579 Y114.265 E6.34370
G1 X108.072 Y114.265 E6.34796
G1 X112.735 Y118.928 E6.40331
G1 X112.735 Y119.436 E6.40757
G1 X107.564 Y114.265 E6.46895
G1 X107.057 Y114.265 E6.47321
G1 X112.735 Y119.943 E6.54062
G1 X112.735 Y120.451 E6.54488
G1 X106.549 Y114.265 E6.61831
G1 X106.041 Y114.265 E6.62257
G1 X112.735 Y120.959 E6.70202
G1 X112.735 Y121.466 E6.70628
G1 X105.534 Y114.265 E6.79176
G1 X105.026 Y114.265 E6.79602
G1 X112.735 Y121.974 E6.88752
G1 X112.735 Y122.481 E6.89178
G1 X104.519 Y114.265 E6.98931
G1 X104.011 Y114.265 E6.99357
G1 X112.735 Y122.989 E7.09713
G1 X112.735 Y123.497 E7.10139
G1 X103.503 Y114.265 E7.21097
G1 X102.996 Y114.265 E7.21523
G1 X112.735 Y124.004 E7.33084
G1 X112.735 Y124.512 E7.33510
G1 X102.488 Y114.265 E7.45673
G1 X101.981 Y114.265 E7.46099
G1 X112.735 Y125.019 E7.58864
G1 X112.735 Y125.527 E7.59290
G1 X101.473 Y114.265 E7.72658
G1 X100.965 Y114.265 E7.73084
G1 X112.735 Y126.035 E7.87055
G1 X112.735 Y126.542 E7.87481
G1 X100.458 Y114.265 E8.02054
G1 X99.950 Y114.265 E8.02480
G1 X112.735 Y127.050 E8.17656
G1 X112.735 Y127.558 E8.18082
G1 X99.442 Y114.265 E8.33860
G1 X98.935 Y114.265 E8.34286
G1 X112.735 Y128.065 E8.50667
G1 X112.735 Y128.573 E8.51093
G1 X98.427 Y114.265 E8.68076
G1 X97.920 Y114.265 E8.68502
G1 X112.735 Y129.080 E8.86088
G1 X112.735 Y129.588 E8.86514
G1 X97.412 Y114.265 E9.04702
G1 X96.904 Y114.265 E9.05128
G1 X112.735 Y130.096 E9.23919
G1 X112.735 Y130.603 E9.24345
G1 X96.397 Y114.265 E9.43738
G1 X95.889 Y114.265 E9.44165
G1 X112.735 Y131.111 E9.64160
G1 X112.735 Y131.618 E9.64586
G1 X95.382 Y114.265 E9.85185
G1 X94.874 Y114.265 E9.85611
G1 X112.735 Y132.126 E10.06812
G1 X112.735 Y132.634 E10.07238
G1 X94.366 Y114.265 E10.29041
G1 X93.859 Y114.265 E10.29467
G1 X112.329 Y132.735 E10.51391
G1 X111.821 Y132.735 E10.51817
G1 X93.351 Y114.265 E10.73741
G1 X92.844 Y114.265 E10.74167
G1 X111.314 Y132.735 E10.96091
G1 X110.806 Y132.735 E10.96517
G1 X87.265 Y109.194 E11.24460
G1 X87.265 Y108.686 E11.24886
G1 X92.735 Y114.156 E11.31380
G1 X92.735 Y113.649 E11.31806
G1 X87.265 Y108.179 E11.38299
G1 X87.265 Y107.671 E11.38725
G1 X92.735 Y113.141 E11.45218
G1 X92.735 Y112.634 E11.45644
G1 X87.265 Y107.163 E11.52137
G1 X87.265 Y106.656 E11.52563
G1 X92.735 Y112.126 E11.59057
G1 X92.735 Y111.618 E11.59483
G1 X87.265 Y106.148 E11.65976
G1 X87.265 Y105.640 E11.66402
G1 X92.735 Y111.111 E11.72895
G1 X92.735 Y110.603 E11.73321
G1 X87.265 Y105.133 E11.79814
G1 X87.265 Y104.625 E11.80240
G1 X92.735 Y110.096 E11.86734
G1 X92.735 Y109.588 E11.87160
G1 X87.265 Y104.118 E11.93653
G1 X87.265 Y103.610 E11.94079
G1 X92.735 Y109.080 E12.00572
G1 X92.735 Y108.573 E12.00998
G1 X87.265 Y103.102 E12.07491
G1 X87.265 Y102.595 E12.07917
G1 X92.735 Y108.065 E12.14411
G1 X92.735 Y107.558 E12.14837
G1 X87.265 Y102.087 E12.21330
G1 X87.265 Y101.580 E12.21756
G1 X92.735 Y107.050 E12.28249
G1 X92.735 Y106.542 E12.28675
G1 X87.265 Y101.072 E12.35168
G1 X87.265 Y100.564 E12.35594
G1 X92.735 Y106.035 E12.42088
G1 X92.735 Y105.527 E12.42514
G1 X87.265 Y100.057 E12.49007
G1 X87.265 Y99.549 E12.49433
G1 X92.735 Y105.019 E12.55926
