; generated by Slic3r 1.2.9 on 2016-11-23 at 18:30:59

; external perimeters extrusion width = 0.40mm
; perimeters extrusion width = 0.67mm
; infill extrusion width = 0.67mm
; solid infill extrusion width = 0.67mm
; top infill extrusion width = 0.67mm
; support material extrusion width = 0.40mm

M107
M190 S115 ; set bed temperature
M104 S240 ; set temperature
M42 P19 S0
G28 X0 Y0 Z80.9
G92 E0
G1 Z30 F200;(Move away from X/Y endstops)
G1 E10 F20 ;(Move away from X/Y endstops)
G1 E9 F200
G1 Z5 F100

M109 S240 ; wait for temperature to be reached
G21 ; set units to millimeters
G90 ; use absolute coordinates
M82 ; use absolute distances for extrusion
G92 E0
G1 E-3.00000 F2400.00000
G92 E0
G1 Z0.600 F6000.000
G0 X100 Y79 F6000
M42 P19 S255
M42 P19 S255
M42 P19 S255
M42 P19 S255
M42 P19 S255
M42 P19 S255
M42 P19 S255
M42 P19 S255
M42 P19 S255
M42 P19 S255
M42 P19 S255
M42 P19 S255
M42 P19 S255
M42 P19 S255
M42 P19 S255
M42 P19 S255
M42 P19 S255
M42 P19 S255
M42 P19 S255
M42 P19 S255
M42 P19 S255
M42 P19 S255
M42 P19 S255
M42 P19 S255
M42 P19 S255
M42 P19 S255
M42 P19 S255
M42 P19 S255
M42 P19 S255
M42 P19 S255
M42 P19 S0
G0 X103 F60 ;3 secound pause!
G0 X101 F6000

G1 X31.403 Y45.521 F6000.000
G1 Z0.200 F6000.000
G1 E3.00000 F2400.00000
G1 X33.572 Y44.728 E3.01928 F1500.000
G1 X34.761 Y44.621 E3.02924
G1 X43.855 Y44.622 E3.10518
G1 X165.843 Y46.338 E4.12386 F1500.000
G1 X168.112 Y46.767 E4.14314
G1 X170.101 Y47.939 E4.16242
G1 X171.576 Y49.716 E4.18170
G1 X172.361 Y51.887 E4.20098
G1 X172.463 Y53.051 E4.21074
G1 X172.463 Y100.085 E4.60347
G1 X172.215 Y148.699 E5.00938
G1 X171.806 Y150.971 E5.02866
G1 X170.652 Y152.971 E5.04794
G1 X168.888 Y154.461 E5.06722
G1 X166.724 Y155.266 E5.08650
G1 X165.500 Y155.379 E5.09676
G1 X156.500 Y155.379 E5.17191
G1 X34.187 Y154.210 E6.19325
G1 X31.916 Y153.791 E6.21253
G1 X29.922 Y152.628 E6.23181
G1 X28.439 Y150.858 E6.25109
G1 X27.644 Y148.690 E6.27037
G1 X27.537 Y147.496 E6.28038
G1 X27.537 Y100.427 E6.67340
G1 X28.047 Y51.266 E7.08391
G1 X28.467 Y48.996 E7.10319
G1 X29.632 Y47.002 E7.12247
G1 X31.357 Y45.559 E7.14124
G1 X31.642 Y45.821 F6000.000
G1 X31.742 Y45.741 E7.14231 F1500.000
G1 X34.761 Y44.979 E7.16831
G1 X43.850 Y44.979 E7.24420
G1 X165.838 Y46.695 E8.26288 F1500.000
G1 X168.043 Y47.123 E8.28164
G1 X169.962 Y48.291 E8.30040
G1 X171.355 Y50.053 E8.31915
G1 X172.106 Y53.051 E8.34496
G1 X172.106 Y100.084 E8.73767
G1 X171.857 Y148.697 E9.14359
G1 X171.449 Y150.906 E9.16234
G1 X170.298 Y152.835 E9.18110
G1 X168.549 Y154.243 E9.19986
G1 X165.500 Y155.021 E9.22612
G1 X156.500 Y155.021 E9.30127
G1 X34.190 Y153.853 E10.32259
G1 X31.983 Y153.435 E10.34134
G1 X30.059 Y152.276 E10.36010
G1 X28.659 Y150.519 E10.37885
G1 X27.894 Y147.496 E10.40489
G1 X27.894 Y100.430 E10.79788
G1 X28.404 Y51.270 E11.20839
G1 X28.824 Y49.063 E11.22714
G1 X29.985 Y47.140 E11.24590
G1 X31.595 Y45.858 E11.26309
G1 F4800
G1 X31.742 Y45.741 E11.17394
G1 F4800
G1 X34.761 Y44.979 E9.69503
G1 F4800
G1 X37.459 Y44.979 E8.41309
G1 E8.26309 F2400.00000
G92 E0
G1 Z0.800 F6000.000
G1 X34.029 Y99.961 F6000.000
G1 Z0.200 F6000.000
G1 E3.00000 F2400.00000
G1 X43.473 Y99.961 E3.07885 F1500.000
G1 X43.787 Y100.274 E3.08256
G1 X43.787 Y147.718 E3.47871 F1500.000
G1 X43.473 Y148.032 E3.48241
G1 X34.029 Y148.032 E3.56126
G1 X33.716 Y147.718 E3.56497
G1 X33.716 Y100.274 E3.96112
G1 X33.987 Y100.003 E3.96432
G1 X34.073 Y100.422 F6000.000
G1 X34.177 Y100.318 E3.96555 F1500.000
G1 X43.325 Y100.318 E4.04194
G1 X43.430 Y100.422 E4.04317
G1 X43.430 Y147.570 E4.43685
G1 X43.325 Y147.675 E4.43808
G1 X34.177 Y147.675 E4.51447
G1 X34.073 Y147.570 E4.51570
G1 X34.073 Y100.482 E4.90888
G1 X34.539 Y98.871 F6000.000
G1 X34.225 Y98.558 E4.91258 F1500.000
G1 X34.225 Y51.114 E5.30873
G1 X34.539 Y50.800 E5.31244
G1 X43.982 Y50.800 E5.39129
G1 X44.296 Y51.114 E5.39499
G1 X44.296 Y98.558 E5.79114 F1500.000
G1 X43.982 Y98.871 E5.79485
G1 X34.599 Y98.871 E5.87320
G1 X34.687 Y98.514 F6000.000
G1 X34.582 Y98.410 E5.87443 F1500.000
G1 X34.582 Y51.262 E6.26811
G1 X34.687 Y51.157 E6.26934
G1 X43.834 Y51.157 E6.34573
G1 X43.939 Y51.262 E6.34696
G1 X43.939 Y98.410 E6.74064
G1 X43.834 Y98.514 E6.74187
G1 X34.747 Y98.514 E6.81776
G1 F4800
G1 X34.582 Y98.410 E6.72513
G1 F4800
G1 X34.582 Y92.605 E3.96776
G1 E3.81776 F2400.00000
G92 E0
G1 Z0.800 F6000.000
G1 X46.563 Y98.514 F6000.000
G1 Z0.200 F6000.000
G1 E3.00000 F2400.00000
G1 X46.563 Y55.465 E3.35945 F1500.000
G1 X46.876 Y55.151 E3.36316
G1 X98.770 Y55.151 E3.79646
G1 X99.084 Y55.465 E3.80016
G1 X99.084 Y142.909 E4.53030 F1500.000
G1 X98.770 Y143.223 E4.53401
G1 X46.876 Y143.223 E4.96731
G1 X46.563 Y142.909 E4.97102
G1 X46.563 Y98.574 E5.34121
G1 F4800
G1 X46.563 Y92.574 E2.49121
G1 E2.34121 F2400.00000
G92 E0
G1 Z0.800 F6000.000
G1 X46.920 Y55.613 F6000.000
G1 Z0.200 F6000.000
G1 E3.00000 F2400.00000
G1 X47.024 Y55.509 E3.00123 F1500.000
G1 X98.622 Y55.509 E3.43207
G1 X98.727 Y55.613 E3.43330
G1 X98.727 Y142.761 E4.16097
G1 X98.622 Y142.866 E4.16221
G1 X47.024 Y142.866 E4.59304
G1 X46.920 Y142.761 E4.59428
G1 X46.920 Y55.673 E5.32145
G1 F4800
G1 X47.024 Y55.509 E5.22882
G1 F4800
G1 X52.829 Y55.509 E2.47145
G1 E2.32145 F2400.00000
G92 E0
G1 Z0.800 F6000.000
G1 X101.401 Y55.613 F6000.000
G1 Z0.200 F6000.000
G1 E3.00000 F2400.00000
G1 X101.401 Y55.536 E3.00064 F1500.000
G1 X101.714 Y55.222 E3.00435
G1 X153.608 Y55.222 E3.43765
G1 X153.922 Y55.536 E3.44136
G1 X153.922 Y142.980 E4.17150 F1500.000
G1 X153.608 Y143.294 E4.17520
G1 X101.714 Y143.294 E4.60850
G1 X101.401 Y142.980 E4.61221
G1 X101.401 Y55.673 E5.34121
G1 X101.758 Y55.684 F6000.000
G1 X101.862 Y55.579 E5.34244 F1500.000
G1 X153.460 Y55.579 E5.77327
G1 X153.565 Y55.684 E5.77451
G1 X153.565 Y142.832 E6.50218
G1 X153.460 Y142.936 E6.50341
G1 X101.862 Y142.936 E6.93425
G1 X101.758 Y142.832 E6.93548
G1 X101.758 Y55.744 E7.66265
G1 F4800
G1 X101.862 Y55.579 E7.57002
G1 F4800
G1 X107.667 Y55.579 E4.81265
G1 E4.66265 F2400.00000
G92 E0
G1 Z0.800 F6000.000
G1 X156.628 Y100.688 F6000.000
G1 Z0.200 F6000.000
G1 E3.00000 F2400.00000
G1 X156.213 Y100.273 E3.00490 F1500.000
G1 X156.213 Y52.829 E3.40105
G1 X156.527 Y52.516 E3.40475
G1 X165.971 Y52.516 E3.48360
G1 X166.284 Y52.829 E3.48731
G1 X166.284 Y100.273 E3.88346
G1 X165.971 Y100.587 E3.88716
G1 X165.804 Y100.587 E3.88855
G1 X165.621 Y101.028 E3.89254
G1 X166.036 Y101.442 E3.89744
G1 X166.036 Y148.886 E4.29358
G1 X165.722 Y149.200 E4.29729
G1 X156.279 Y149.200 E4.37614
G1 X155.965 Y148.886 E4.37985
G1 X155.965 Y101.442 E4.77599
G1 X156.279 Y101.129 E4.77970
G1 X156.445 Y101.129 E4.78109
G1 X156.605 Y100.743 E4.78458
G1 X156.675 Y100.230 F6000.000
G1 X156.570 Y100.125 E4.78581 F1500.000
G1 X156.570 Y52.977 E5.17949
G1 X156.675 Y52.873 E5.18072
G1 X165.823 Y52.873 E5.25711
G1 X165.927 Y52.977 E5.25834
G1 X165.927 Y100.125 E5.65202
G1 X165.823 Y100.230 E5.65325
G1 X156.735 Y100.230 E5.72914
G1 X156.322 Y101.590 F6000.000
G1 X156.427 Y101.486 E5.73037 F1500.000
G1 X165.574 Y101.486 E5.80675
G1 X165.679 Y101.590 E5.80799
G1 X165.679 Y148.738 E6.20167
G1 X165.574 Y148.843 E6.20290
G1 X156.427 Y148.843 E6.27928
G1 X156.322 Y148.738 E6.28052
G1 X156.322 Y101.650 E6.67369
G1 F4800
G1 X156.427 Y101.486 E6.58107
G1 F4800
G1 X162.232 Y101.486 E3.82369
G1 E3.67369 F2400.00000
G92 E0
G1 Z0.800 F6000.000
G1 X43.051 Y147.296 F6000.000
G1 Z0.200 F6000.000
G1 E3.00000 F2400.00000
G1 X34.451 Y147.296 E3.07181 F1500.000
G1 X34.451 Y100.696 E3.46091
G1 X43.051 Y100.696 E3.53272
G1 X43.051 Y147.236 E3.92132
G1 X42.705 Y147.096 F6000.000
G1 X42.694 Y146.939 F6000.000
G1 X34.808 Y146.939 E3.98717 F1500.000
G1 X34.808 Y101.053 E4.37030
G1 X42.694 Y101.053 E4.43615
G1 X42.694 Y146.879 E4.81879
G1 F4800
G1 X36.694 Y146.925 E1.96879
G1 E1.81879 F2400.00000
G92 E0
G1 Z0.800 F6000.000
G1 X38.494 Y112.286 F6000.000
G1 Z0.200 F6000.000
G1 E3.00000 F2400.00000
G1 X37.567 Y111.863 E3.00851 F1500.000
G1 X37.016 Y111.006 E3.01702
G1 X37.016 Y109.987 E3.02553
G1 X37.567 Y109.130 E3.03403
G1 X38.413 Y108.743 E3.04180
G1 X38.494 Y108.706 E3.04254 F1500.000
G1 X39.502 Y108.851 E3.05105
G1 X40.272 Y109.519 E3.05956
G1 X40.560 Y110.496 E3.06807
G1 X40.272 Y111.474 E3.07658
G1 X39.502 Y112.141 E3.08508
G1 X38.553 Y112.278 E3.09309
G1 X38.218 Y112.576 F6000.000
G1 X38.545 Y112.640 F6000.000
G1 X38.441 Y112.655 E3.09397 F1500.000
G1 X37.323 Y112.144 E3.10423
G1 X36.659 Y111.111 E3.11448
G1 X36.659 Y109.882 E3.12474
G1 X37.323 Y108.848 E3.13500
G1 X38.265 Y108.418 E3.14365
G1 X38.441 Y108.338 E3.14526 F1500.000
G1 X39.657 Y108.513 E3.15552
G1 X40.586 Y109.317 E3.16578
G1 X40.932 Y110.496 E3.17604
G1 X40.586 Y111.675 E3.18630
G1 X39.657 Y112.480 E3.19656
G1 X38.604 Y112.631 E3.20544
G1 X38.494 Y122.206 F6000.000
G1 X39.502 Y122.351 E3.21395 F1500.000
G1 X40.272 Y123.019 E3.22246
G1 X40.560 Y123.996 E3.23097
G1 X40.272 Y124.974 E3.23948
G1 X39.502 Y125.641 E3.24798
G1 X38.494 Y125.786 E3.25649
G1 X37.567 Y125.363 E3.26500
G1 X37.016 Y124.506 E3.27351
G1 X37.016 Y123.487 E3.28202
G1 X37.567 Y122.630 E3.29053
G1 X38.439 Y122.231 E3.29853 F1500.000
G1 X38.677 Y121.851 F6000.000
G1 X38.545 Y121.853 F6000.000
G1 X39.657 Y122.013 E3.30792 F1500.000
G1 X40.586 Y122.817 E3.31818
G1 X40.932 Y123.996 E3.32844
G1 X40.586 Y125.175 E3.33869
G1 X39.657 Y125.980 E3.34895
G1 X38.441 Y126.155 E3.35921
G1 X37.323 Y125.644 E3.36947
G1 X36.659 Y124.611 E3.37973
G1 X36.659 Y123.382 E3.38999
G1 X37.323 Y122.348 E3.40025
G1 X38.441 Y121.838 E3.41051 F1500.000
G1 X38.485 Y121.844 E3.41088
G1 F4800
G1 X39.657 Y122.013 E2.84856
G1 F4800
G1 X40.586 Y122.817 E2.26493
G1 F4800
G1 X40.932 Y123.996 E1.68132
G1 F4800
G1 X40.586 Y125.175 E1.09771
G1 F4800
G1 X39.731 Y125.915 E0.56088
G1 E0.41088 F2400.00000
G92 E0
G1 Z0.800 F6000.000
G1 X38.494 Y135.706 F6000.000
G1 Z0.200 F6000.000
G1 E3.00000 F2400.00000
G1 X39.502 Y135.851 E3.00851 F1500.000
G1 X40.272 Y136.519 E3.01702
G1 X40.560 Y137.496 E3.02553
G1 X40.272 Y138.474 E3.03403
G1 X39.502 Y139.141 E3.04254
G1 X38.494 Y139.286 E3.05105
G1 X37.565 Y138.862 E3.05958
G1 X37.016 Y138.006 E3.06807
G1 X37.016 Y136.987 E3.07658
G1 X37.567 Y136.130 E3.08509
G1 X38.413 Y135.743 E3.09285
G1 X38.439 Y135.731 E3.09309 F1500.000
G1 X38.677 Y135.351 F6000.000
G1 X38.345 Y135.381 F6000.000
G1 X38.441 Y135.338 E3.09397 F1500.000
G1 X39.657 Y135.513 E3.10423
G1 X40.586 Y136.317 E3.11449
G1 X40.932 Y137.496 E3.12475
G1 X40.586 Y138.675 E3.13501
G1 X39.657 Y139.480 E3.14527
G1 X38.441 Y139.655 E3.15553
G1 X37.321 Y139.143 E3.16580
G1 X36.659 Y138.110 E3.17605
G1 X36.659 Y136.882 E3.18631
G1 X37.323 Y135.848 E3.19656
G1 X38.265 Y135.418 E3.20521
G1 X38.291 Y135.406 E3.20545 F1500.000
G1 F4800
G1 X38.441 Y135.338 E3.12715
G1 F4800
G1 X39.657 Y135.513 E2.54352
G1 F4800
G1 X40.586 Y136.317 E1.95989
G1 F4800
G1 X40.932 Y137.496 E1.37627
G1 F4800
G1 X40.586 Y138.675 E0.79265
G1 F4800
G1 X39.890 Y139.278 E0.35545
G1 E0.20545 F2400.00000
G92 E0
G1 Z0.800 F6000.000
G1 X36.637 Y138.559 F6000.000
G1 Z0.200 F6000.000
G1 E3.00000 F2400.00000
G1 X35.016 Y136.938 E3.01916 F1500.000
G1 X35.016 Y136.433 E3.02338
G1 X36.451 Y137.868 E3.04034
G1 X36.451 Y137.363 E3.04456
G1 X35.016 Y135.927 E3.06152
G1 X35.016 Y135.422 E3.06575
G1 X36.458 Y136.864 E3.08279
G1 X36.656 Y136.556 E3.08584
G1 X35.016 Y134.917 E3.10522
G1 X35.016 Y134.411 E3.10944
G1 X36.853 Y136.249 E3.13115
G1 X37.051 Y135.941 E3.13421
G1 X35.016 Y133.906 E3.15826
G1 X35.016 Y133.401 E3.16248
G1 X37.281 Y135.666 E3.18925
G1 X37.628 Y135.508 E3.19244
G1 X35.016 Y132.895 E3.22331
G1 X35.016 Y132.390 E3.22753
G1 X37.975 Y135.349 E3.26250
G1 X38.322 Y135.191 E3.26569
G1 X35.016 Y131.884 E3.30476
G1 X35.016 Y131.379 E3.30898
G1 X38.806 Y135.169 E3.35377
G1 X39.396 Y135.254 E3.35875
G1 X35.016 Y130.874 E3.41051
G1 X35.016 Y130.368 E3.41473
G1 X42.486 Y137.839 E3.50301
G1 X42.486 Y137.333 E3.50723
G1 X35.016 Y129.863 E3.59551
G1 X35.016 Y129.358 E3.59973
G1 X42.486 Y136.828 E3.68801
G1 X42.486 Y136.323 E3.69224
G1 X35.016 Y128.852 E3.78052
G1 X35.016 Y128.347 E3.78474
G1 X42.486 Y135.817 E3.87302
G1 X42.486 Y135.312 E3.87724
G1 X35.016 Y127.842 E3.96552
G1 X35.016 Y127.336 E3.96974
G1 X42.486 Y134.807 E4.05802
G1 X42.486 Y134.301 E4.06224
G1 X35.016 Y126.831 E4.15052
G1 X35.016 Y126.325 E4.15475
G1 X42.486 Y133.796 E4.24303
G1 X42.486 Y133.290 E4.24725
G1 X35.016 Y125.820 E4.33553
G1 X35.016 Y125.315 E4.33975
G1 X42.486 Y132.785 E4.42803
G1 X42.486 Y132.280 E4.43225
G1 X35.016 Y124.809 E4.52053
G1 X36.451 Y124.728 F6000.000
G1 X35.016 Y123.293 E4.53749 F1500.000
G1 X35.016 Y122.788 E4.54171
G1 X36.451 Y124.223 E4.55867
G1 X36.451 Y123.718 E4.56290
G1 X35.016 Y122.283 E4.57986
G1 X35.016 Y121.777 E4.58408
G1 X36.515 Y123.276 E4.60179
G1 X36.712 Y122.968 E4.60484
G1 X35.016 Y121.272 E4.62489
G1 X35.016 Y120.766 E4.62911
G1 X36.910 Y122.660 E4.65149
G1 X37.108 Y122.353 E4.65455
G1 X35.016 Y120.261 E4.67927
G1 X35.016 Y119.756 E4.68349
G1 X37.381 Y122.121 E4.71144
G1 X37.728 Y121.962 E4.71462
G1 X35.016 Y119.250 E4.74667
G1 X35.016 Y118.745 E4.75089
G1 X38.075 Y121.804 E4.78704
G1 X38.422 Y121.645 E4.79023
G1 X35.016 Y118.240 E4.83047
G1 X35.016 Y117.734 E4.83469
G1 X38.975 Y121.693 E4.88148
G1 X39.565 Y121.778 E4.88646
G1 X35.016 Y117.229 E4.94022
G1 X35.016 Y116.724 E4.94444
G1 X42.486 Y124.194 E5.03272
G1 X42.486 Y123.689 E5.03694
G1 X35.016 Y116.218 E5.12522
G1 X35.016 Y115.713 E5.12944
G1 X42.486 Y123.183 E5.21772
G1 X42.486 Y122.678 E5.22194
G1 X35.016 Y115.207 E5.31022
G1 X35.016 Y114.702 E5.31445
G1 X42.486 Y122.172 E5.40273
G1 X42.486 Y121.667 E5.40695
G1 X35.016 Y114.197 E5.49523
G1 X35.016 Y113.691 E5.49945
G1 X42.486 Y121.162 E5.58773
G1 X42.486 Y120.656 E5.59195
G1 X35.016 Y113.186 E5.68023
G1 X35.016 Y112.681 E5.68445
G1 X42.486 Y120.151 E5.77273
G1 X42.486 Y119.646 E5.77696
G1 X35.016 Y112.175 E5.86524
G1 X35.016 Y111.670 E5.86946
G1 X42.486 Y119.140 E5.95774
G1 X42.486 Y118.635 E5.96196
G1 X35.016 Y111.165 E6.05024
G1 X36.451 Y111.084 F6000.000
G1 X35.016 Y109.648 E6.06720 F1500.000
G1 X35.016 Y109.143 E6.07142
G1 X36.451 Y110.578 E6.08838
G1 X36.451 Y110.073 E6.09260
G1 X35.016 Y108.638 E6.10956
G1 X35.016 Y108.132 E6.11379
G1 X36.571 Y109.688 E6.13217
G1 X36.769 Y109.380 E6.13522
G1 X35.016 Y107.627 E6.15594
G1 X35.016 Y107.122 E6.16016
G1 X36.967 Y109.072 E6.18321
G1 X37.164 Y108.765 E6.18627
G1 X35.016 Y106.616 E6.21165
G1 X35.016 Y106.111 E6.21588
G1 X37.480 Y108.575 E6.24500
G1 X37.827 Y108.417 E6.24818
G1 X35.016 Y105.606 E6.28141
G1 X35.016 Y105.100 E6.28563
G1 X38.174 Y108.258 E6.32295
G1 X38.554 Y108.133 E6.32629
G1 X35.016 Y104.595 E6.36810
G1 X35.016 Y104.089 E6.37232
G1 X39.144 Y108.217 E6.42110
G1 X39.734 Y108.302 E6.42608
G1 X35.016 Y103.584 E6.48184
G1 X35.016 Y103.079 E6.48606
G1 X42.486 Y110.549 E6.57434
G1 X42.486 Y110.044 E6.57856
G1 X35.016 Y102.573 E6.66684
G1 X35.016 Y102.068 E6.67106
G1 X42.486 Y109.538 E6.75934
G1 X42.486 Y109.033 E6.76357
G1 X35.016 Y101.563 E6.85185
G1 X35.220 Y101.261 E6.85489
G1 X42.486 Y108.528 E6.94076
G1 X42.486 Y108.022 E6.94498
G1 X35.725 Y101.261 E7.02488
G1 X36.230 Y101.261 E7.02910
G1 X42.486 Y107.517 E7.10303
G1 X42.486 Y107.012 E7.10725
G1 X36.736 Y101.261 E7.17521
G1 X37.241 Y101.261 E7.17943
G1 X42.486 Y106.506 E7.24141
G1 X42.486 Y106.001 E7.24564
G1 X37.747 Y101.261 E7.30165
G1 X38.252 Y101.261 E7.30587
G1 X42.486 Y105.495 E7.35591
G1 X42.486 Y104.990 E7.36013
G1 X38.757 Y101.261 E7.40420
G1 X39.263 Y101.261 E7.40842
G1 X42.486 Y104.485 E7.44652
G1 X42.486 Y103.979 E7.45074
G1 X39.768 Y101.261 E7.48286
G1 X40.273 Y101.261 E7.48709
G1 X42.486 Y103.474 E7.51324
G1 X42.486 Y102.969 E7.51746
G1 X40.779 Y101.261 E7.53764
G1 X41.284 Y101.261 E7.54186
G1 X42.486 Y102.463 E7.55607
G1 X42.486 Y101.958 E7.56029
G1 X41.789 Y101.261 E7.56853
G1 X42.295 Y101.261 E7.57275
G1 X42.486 Y101.453 E7.57501
G1 X42.486 Y111.054 F6000.000
G1 X40.860 Y109.428 E7.59423 F1500.000
G1 X41.070 Y110.144 E7.60046
G1 X42.486 Y111.560 E7.61720
G1 X42.486 Y112.065 E7.62142
G1 X41.081 Y110.660 E7.63802
G1 X40.966 Y111.051 E7.64143
G1 X42.486 Y112.571 E7.65939
G1 X42.486 Y113.076 E7.66361
G1 X40.852 Y111.441 E7.68293
G1 X40.708 Y111.803 E7.68618
